!!!!SEGMENT: pl-sa--168-a-iv-18--001_luna-georgius--missa-kirie.krn
!!!cenid: 17xx:514
!!!COM: Luna, Georgius
!!!COM-rismid: pe41010079
!!!CDT:
!!!CNT:
!!!OTL: Missa – Kirie
!!!PDT:
!!!AGN: Sacred; Mass
!!!SMS-siglum: PL-SA
!!!SMS-shelfmark: 168/A IV 18
!!!SMS-shelfwork: 001-001 M
!!!SMS-variant:
!!!SMS-altvar:
!!!NIFC-rismid: 1001070167
!!!URL-scan: http://bc.bdsandomierz.pl/dlibra/publication/1554/edition/1522/content
!!!ONB-nifc: UWAGA: części Mszy: Kirie, Gloria, Credo, Sanctus, Benedictus, Agnus Dei
**kern	**dynam	**kern	**dynam	**kern	**dynam	**kern	**text	**kern	**text	**kern	**text
*part6	*part6	*part5	*part5	*part4	*part4	*part3	*part3	*part2	*part2	*part1	*part1
*staff6	*	*staff5	*	*staff4	*	*staff3	*staff3	*staff2	*staff2	*staff1	*staff1
*I"Violoncello	*	*I"Violino Secundo	*	*I"Violino Primo	*	*I"Baſso.	*	*I"Tenore.	*	*I"Canto.	*
*I'bassi	*	*I'vl 2	*	*I'vl 1	*	*I'B	*	*I'T	*	*I'S	*
*clefF4	*	*clefG2	*	*clefG2	*	*clefF4	*	*clefC4	*	*clefC1	*
*k[f#]	*	*k[f#]	*	*k[f#]	*	*k[f#]	*	*k[f#]	*	*k[f#]	*
*G:	*	*G:	*	*G:	*	*G:	*	*G:	*	*G:	*
*M4/4	*	*M4/4	*	*M4/4	*	*M4/4	*	*M4/4	*	*M4/4	*
*met(c)	*	*met(c)	*	*met(c)	*	*met(c)	*	*met(c)	*	*met(c)	*
=1	=1	=1	=1	=1	=1	=1	=1	=1	=1	=1	=1
!LO:TX:t=P:problem:brak nazwy partii	!	!	!	!	!	!	!	!	!	!	!
!LO:TX:a:t=Adagio	!	!LO:TX:a:t=Adagio	!	!LO:TX:b:t=Kirie	!	!	!	!	!	!	!
!LO:TX:b:t=Kirye	!	!LO:TX:b:t=Kirie	!	!LO:TX:a:t=Adagio	!	!LO:TX:a:t=adagio	!	!LO:TX:a:t=adagio	!	!LO:TX:a:t=Adagio	!
4.G\	.	4.b\	.	4.gg 4.b 4.d/ 4.G	.	4.G\	Ky-	4.d\	Ky-	4.b\	Ki-
8G\	.	8b\	.	[>8gg\	.	8G\	-ri-	8d\	-ri-	8b\	-ri-
!	!	!	!	!LO:TX:a:t=P:problem:mixed beam	!	!	!	!	!	!	!
8G\L	.	8b/L	.	8gg\L]	.	4G\	-e	4d\	-e	4b\	-e
!	!	!	!	!LO:TUP:b:problem:klamra łukowa, falowana linia zamiast numeru	!	!	!	!	!	!	!
!LO:TUP:a:problem:klamra łukowa, falowana linia zamiast numeru	!	!LO:TUP:b:problem:klamra łukowa, falowana linia zamiast numeru	!	!	!	!	!	!	!	!	!
24D\L	.	24d/L	.	24d/L	.	.	.	.	.	.	.
24E\	.	24e/	.	24e/	.	.	.	.	.	.	.
24F#\JJ	.	24f#/JJ	.	24f#/JJ	.	.	.	.	.	.	.
8G`\L	.	8g/L	.	8g/L	.	4r	.	4r	.	4r	.
(>16G\L	.	16g/L	.	16g/L	.	.	.	.	.	.	.
16B\JJ)	.	16b/JJ	.	16b/JJ	.	.	.	.	.	.	.
=2	=2	=2	=2	=2	=2	=2	=2	=2	=2	=2	=2
8G\L	.	8g/L	.	8g/L	.	1r	.	1r	.	1r	.
!LO:TUP:a:problem:klamra łukowa, falowana linia zamiast numeru	!	!LO:TUP:b:problem:klamra łukowa, falowana linia zamiast numeru	!	!LO:TUP:b:problem:klamra łukowa, falowana linia zamiast numeru	!	!	!	!	!	!	!
24D\L	.	24d/L	.	24d/L	.	.	.	.	.	.	.
24E\	.	24e/	.	24e/	.	.	.	.	.	.	.
24F#\JJ	.	24f#/JJ	.	24f#/JJ	.	.	.	.	.	.	.
8G`\L	.	8g/L	.	8g/L|	.	.	.	.	.	.	.
(>16G\L	.	(<16g/L	.	(<16g/L	.	.	.	.	.	.	.
16B\JJ)	.	16b/JJ)	.	16b/JJ)	.	.	.	.	.	.	.
!LO:N:vis=16	!	!	!	!	!	!	!	!	!	!	!
8G\L	.	8g/L	.	8g/L	.	.	.	.	.	.	.
(>32D\LL	.	32d/LL	.	32d/LL	.	.	.	.	.	.	.
32C\	.	(<32c/	.	(<32c/	.	.	.	.	.	.	.
32BB\)	.	32B/)	.	32B/)	.	.	.	.	.	.	.
32AA\JJJ	.	32A/JJJ	.	32A/JJJ	.	.	.	.	.	.	.
4GG'/	.	4G/	.	4G/	.	.	.	.	.	.	.
=3	=3	=3	=3	=3	=3	=3	=3	=3	=3	=3	=3
4.d\	.	4.a/	.	4.ff# 4.a 4.d/	.	4.d\	Ki-	4.f#\	Ky-	4.a\	Ki-
8D\	.	8a/	.	8ff#\	.	8D\	-ri-	8f#\	-ri-	8a\	-ri-
!	!	!	!	!LO:TX:a:t=P:problem:mixed beam	!	!	!	!	!	!	!
8D/L	.	8a/L	.	8ff#\L	.	4D\	-e	4f#\	-e	4a\	-e
!LO:TUP:b:problem:klamra łukowa, falowana linia zamiast numeru	!	!LO:TUP:b:problem:klamra łukowa, falowana linia zamiast numeru	!	!LO:TUP:b:problem:klamra łukowa, falowana linia zamiast numeru	!	!	!	!	!	!	!
24AA/L	.	24A/L	.	24A/L	.	.	.	.	.	.	.
24BB/	.	24B/	.	24B/	.	.	.	.	.	.	.
24C#X/JJ	.	24c#X/JJ	.	24c#X/JJ	.	.	.	.	.	.	.
8D/L|	.	8d/L	.	8d/L	.	4r	.	4r	.	4r	.
(<16D/L	.	16d/L	.	16d/L	.	.	.	.	.	.	.
16F#/JJ)	.	16f#/JJ	.	16f#/JJ	.	.	.	.	.	.	.
=4	=4	=4	=4	=4	=4	=4	=4	=4	=4	=4	=4
8D/L	.	8d/L	.	8d/L	.	2r	.	2r	.	2r	.
!LO:TUP:b:problem:klamra łukowa, falowana linia zamiast numeru	!	!LO:TUP:b:problem:klamra łukowa, falowana linia zamiast numeru	!	!LO:TUP:b:problem:klamra łukowa, falowana linia zamiast numeru	!	!	!	!	!	!	!
24AA/L	.	24A/L	.	24A/L	.	.	.	.	.	.	.
24BB/	.	24B/	.	24B/	.	.	.	.	.	.	.
24C#X/JJ	.	24c#X/JJ	.	24c#X/JJ	.	.	.	.	.	.	.
8D\L	.	8d/L	.	8d/L|	.	.	.	.	.	.	.
16D\L	.	16d/L	.	(16d/L	.	.	.	.	.	.	.
16F#\JJ	.	16f#/JJ	.	16f#/JJ)	.	.	.	.	.	.	.
!	!	!LO:TX:a:t=P:problem:mixed beam	!	!LO:TX:a:t=P:problem:mixed beam	!	!	!	!	!	!	!
8D\L	.	8d/L	.	8d/L	.	8r	.	8r	.	8r	.
8D\	.	8ccn\	.	8aa\	.	8D\	e-	8A\	e-	8cc\	e-
8D\	.	8cc/	.	8aa\	.	4D\	-lei-	4A\	-lei-	4cc\	-lei-
8D\J	.	8a/J	.	8ccn\J	.	.	.	.	.	.	.
!	!	!LO:LB:g=original	!	!	!	!	!	!	!	!	!
=5	=5	=5	=5	=5	=5	=5	=5	=5	=5	=5	=5
.	.	8qqa/	.	8qqcc/	.	.	.	.	.	.	.
1G 1GG	.	4g/	.	4b\	.	4G\	-son	4G/	-son	4b\	-son
.	.	8g/L|	.	8b\L	.	4G\	e-	4G/	e-	4b\	e-
.	.	(<16g/L	.	(>16b\L	.	.	.	.	.	.	.
.	.	16b/JJ)	.	16dd\JJ)	.	.	.	.	.	.	.
.	.	8a/L|	.	8cc\L|	.	2G\	-lei-	4A/	-lei-	4cc\	-lei-
.	.	(<16a/L	.	(>16cc\L	.	.	.	.	.	.	.
.	.	16cc/JJ)	.	16ee\JJ)	.	.	.	.	.	.	.
.	.	8f#/L|	.	8a\L|	.	.	.	4F#/	.	4a\	.
.	.	(<16f#/L	.	(>16a\L	.	.	.	.	.	.	.
.	.	16a/JJ)	.	16cc\JJ)	.	.	.	.	.	.	.
!	!	!	!	!LO:LB:g=original	!	!	!	!	!	!	!
=6	=6	=6	=6	=6	=6	=6	=6	=6	=6	=6	=6
.	.	8qqa/	.	8qqcc/	.	.	.	.	.	.	.
1G 1GG	.	4g/	.	4b\	.	4G\	-son	4G/	-son	4b\	-son
.	.	8g/L|	.	8b\L|	.	4G\	e-	4G/	e-	4b\	e-
.	.	(<16g/L	.	(>16b\L	.	.	.	.	.	.	.
.	.	16b/JJ)	.	16dd\JJ)	.	.	.	.	.	.	.
.	.	8a/L|	.	8cc\L|	.	2G\	-lei-	4A/	-lei-	4cc\	-lei-
.	.	(<16a/L	.	(>16cc\L	.	.	.	.	.	.	.
.	.	16cc/JJ)	.	16ee\JJ)	.	.	.	.	.	.	.
.	.	8f#/L|	.	8a\L|	.	.	.	4F#/	.	4a\	.
.	.	(<16f#/L	.	(>16a\L	.	.	.	.	.	.	.
.	.	16a/JJ)	.	16cc\JJ)	.	.	.	.	.	.	.
=7	=7	=7	=7	=7	=7	=7	=7	=7	=7	=7	=7
.	.	8qqa/	.	.	.	.	.	.	.	.	.
4GG/	.	4g/	.	4b\	.	4G\	-son	4G/	-son	4b\	-son
4D\	.	8f#/L	.	16a\LL	.	4D\	e-	8F#/L	e-	8a\L	e-
.	.	.	.	16a\	.	.	.	.	.	.	.
.	.	16g/L	.	(>16b\	.	.	.	16G/L	.	(>16b\L	.
.	.	16c/JJ	.	16a\JJ)	.	.	.	16F#/JJ	.	16a\JJ)	.
4GG/	.	4B/	.	8g/L	.	4GG/	-lei-	8G/L	-lei-	4g\	-lei-
.	.	.	.	8d/J	.	.	.	8D/J	.	.	.
4D\	.	8f#/L	.	(<16a/LL	.	4D/	.	8F#/L	.	8a\L	.
.	.	.	.	16a/)	.	.	.	.	.	.	.
.	.	16g/L	.	(<16b/	.	.	.	16G/L	.	(>16b\L	.
.	.	16c/JJ	.	16a/JJ)	.	.	.	16F#/JJ	.	16a\JJ)	.
!	!	!	!	!	!	!	!	!	!	!LO:LB:g=original	!
=8	=8	=8	=8	=8	=8	=8	=8	=8	=8	=8	=8
!	!	!LO:TX:a:t=P:problem:mixed beam	!	!	!	!	!	!	!	!	!
4GG/	.	8B/L	.	8g/L	.	4GG/	-son	4G/	-son	4g\	-son
.	.	8b\J	.	8dd/J	.	.	.	.	.	.	.
4D\	.	8f#/L	.	16a/LL|	.	4D/	e-	8F#/L	e-	8a\L	e-
.	.	.	.	16a/	.	.	.	.	.	.	.
.	.	16g/L	.	(<16b/	.	.	.	16G/L	.	(>16b\L	.
.	.	16c/JJ	.	16a/JJ)	.	.	.	16F#/JJ	.	16a\JJ)	.
!	!	!LO:TX:a:t=P:problem:mixed beam	!	!LO:TX:a:t=P:problem:mixed beam	!	!	!	!	!	!	!
8GG/L	.	8B/L	.	8g/L	.	4GG/	-lei-	4G/	-lei-	8g\L	-lei-
8BB/	.	8b\J	.	8gg\	.	.	.	.	.	8b\J	.
8D/	.	8f#/L	.	8a/	.	4D/	.	4F#/	.	4a\	.
8DD/J	.	8a/J	.	8ff#\J	.	.	.	.	.	.	.
!	!	!	!	!	!	!LO:LB:g=original	!	!LO:LB:g=original	!	!	!
=9	=9	=9	=9	=9	=9	=9	=9	=9	=9	=9	=9
4GG/	.	4b\	.	4gg\	.	8GG/	-son	8G/	-son	8b\	-son
.	.	.	.	.	.	8BB/	e-	8G/	e-	8b\	e-
4D/	.	4a\	.	4ff# 4a 4d/	.	4D/	-lei-	4F#/	-lei-	4a\	-lei-
4GG/	.	4b\	.	4gg 4b 4d 4G/	.	4GG/	-son	4G/	-son	4b\	-son
4r	.	4r	.	4r	.	4r	.	4r	.	4r	.
!LO:LB:g=original	!	!LO:LB:g=original	!	!	!	!	!	!	!	!	!
!	!	!	!	!	!	!	!	!	!	!LO:LB:g=original	!
=10||	=10||	=10||	=10||	=10||	=10||	=10||	=10||	=10||	=10||	=10||	=10||
*k[]	*	*k[]	*	*k[]	*	*k[]	*	*k[]	*	*k[]	*
*C:	*	*C:	*	*C:	*	*C:	*	*C:	*	*C:	*
*M3/4	*	*M3/4	*	*M3/4	*	*M3/4	*	*M3/4	*	*M3/4	*
!	!	!	!	!LO:TX:b:t=Christe	!	!	!	!	!	!LO:TX:t=P:problem:w źródle "Christe | Tacet" zapisane na pięciolinii	!
!	!	!LO:TX:a:t=andante	!	!LO:TX:a:t=Andante	!	!	!	!	!	!LO:TX:t=P:problem:w partii głosowej pominięty fragment utworu	!
!LO:TX:a:t=andante Solo	!	!LO:TX:b:t=Christe	!	!	!	!LO:TX:a:t=Christe Tacet	!	!LO:TX:a:t=moderato	!	!LO:TX:a:t=Christe \nTacet	!
!	!	!	!	!	!	!LO:TX:t=P:problem:w źródle "Christe Tacet" zapisane na pięciolinii	!	!	!	!	!
!	!	!	!	!	!	!LO:TX:t=P:problem:w partii głosowej pominięty fragment utworu	!	!	!	!	!
4C\	.	4e/	.	4cc\	.	2.ryy	.	0.r	.	2.ryy	.
4E\	.	4g/	.	4.cc\	.	.	.	.	.	.	.
4C\	.	4e/	.	.	.	.	.	.	.	.	.
.	.	.	.	(>16ee\LL	.	.	.	.	.	.	.
.	.	.	.	16cc\JJ)	.	.	.	.	.	.	.
=11	=11	=11	=11	=11	=11	=11	=11	=11	=11	=11	=11
!	!	!LO:TX:a:i:t=Solo	!	!	!	!	!	!	!	!	!
8F\L	.	8a/L	.	8ff\L	.	2.ryy	.	.	.	2.ryy	.
8G\J	.	16f/L	.	(>16dd\L	.	.	.	.	.	.	.
!	!	!	!	!LO:TX:a:i:t=Solo	!	!	!	!	!	!	!
.	.	16d/JJ	.	16b\JJ)	.	.	.	.	.	.	.
!	!	!LO:TX:a:t=P:problem:mixed beam	!	!	!	!	!	!	!	!	!
4C/	.	8e/L	.	8cc\L	.	.	.	.	.	.	.
.	.	8ee\J	.	8gg\	.	.	.	.	.	.	.
8r	.	8g/L	.	8ee\	.	.	.	.	.	.	.
8C/	.	8e/J	.	8cc\J	.	.	.	.	.	.	.
=12	=12	=12	=12	=12	=12	=12	=12	=12	=12	=12	=12
8F\L	.	8a/L	.	8ff\L	.	2.ryy	.	.	.	2.ryy	.
8G\	.	(<16f/L	.	16dd\L	.	.	.	.	.	.	.
.	.	16d/JJ)	.	16b\JJ	.	.	.	.	.	.	.
.	.	8qqd/	.	8qqb/	.	.	.	.	.	.	.
8c\	.	2e/	.	2cc\	.	.	.	.	.	.	.
8G\	.	.	.	.	.	.	.	.	.	.	.
8E\	.	.	.	.	.	.	.	.	.	.	.
8C\J	.	.	.	.	.	.	.	.	.	.	.
=13	=13	=13	=13	=13	=13	=13	=13	=13	=13	=13	=13
8c\L	.	8cc\L	.	8cc\L	.	2.ryy	.	.	.	2.ryy	.
8c\	.	8cc\	.	8cc\	.	.	.	.	.	.	.
8B\	.	8b\	.	8b\	.	.	.	.	.	.	.
8B\	.	8b\	.	8b\	.	.	.	.	.	.	.
8A\	.	8a\	.	8a\	.	.	.	.	.	.	.
8A\J	.	8a\J	.	8a\J	.	.	.	.	.	.	.
=14	=14	=14	=14	=14	=14	=14	=14	=14	=14	=14	=14
(>16G\LL	.	16g/LL	.	(<16g/LL	.	2.ryy	.	0.r	.	2.ryy	.
16F#X\JJ)	.	16f#X/JJ	.	16f#X/JJ)	.	.	.	.	.	.	.
4G\	.	4g/	.	4g/	.	.	.	.	.	.	.
(>16A\LL	.	16a/LL	.	(<16a/LL	.	.	.	.	.	.	.
16F#X\JJ)	.	16f#X/JJ	.	16f#X/JJ)	.	.	.	.	.	.	.
4G\	.	4g/	.	4g/	.	.	.	.	.	.	.
=15	=15	=15	=15	=15	=15	=15	=15	=15	=15	=15	=15
8c\L	.	8cc\L	.	8cc\L	.	2.ryy	.	.	.	2.ryy	.
8c\	.	8cc\	.	8cc\	.	.	.	.	.	.	.
8B\	.	8b\	.	8b\	.	.	.	.	.	.	.
8B\	.	8b\	.	8b\	.	.	.	.	.	.	.
8A\	.	8a\	.	8a\	.	.	.	.	.	.	.
8A\J	.	8a\J	.	8a\J	.	.	.	.	.	.	.
=16	=16	=16	=16	=16	=16	=16	=16	=16	=16	=16	=16
(>16G\LL	.	16g/LL	.	(<16g/LL	.	2.ryy	.	.	.	2.ryy	.
16F#X\JJ)	.	16f#X/JJ	.	16f#X/JJ)	.	.	.	.	.	.	.
4G\	.	4g/	.	4g/	.	.	.	.	.	.	.
(>16A\LL	.	16a/LL	.	(<16a/LL	.	.	.	.	.	.	.
16F#X\JJ)	.	16f#X/JJ	.	16f#X/JJ)	.	.	.	.	.	.	.
4G\	.	4g/	.	4g/	.	.	.	.	.	.	.
=17	=17	=17	=17	=17	=17	=17	=17	=17	=17	=17	=17
!	!	!LO:TX:a:t=P:problem:mixed beam	!	!LO:TX:a:t=P:problem:mixed beam	!	!	!	!	!	!	!
4G\	.	8g/L	.	8g/L	.	2.ryy	.	.	.	2.ryy	.
.	.	8dd\J	.	8ffn\J	.	.	.	.	.	.	.
4GG/	.	8r	.	8r	.	.	.	.	.	.	.
.	.	8d/	.	8b\	.	.	.	.	.	.	.
.	.	.	.	8qqb/	.	.	.	.	.	.	.
4C/	.	8r	.	4cc\	.	.	.	.	.	.	.
.	.	8e/	.	.	.	.	.	.	.	.	.
=18	=18	=18	=18	=18	=18	=18	=18	=18	=18	=18	=18
!	!	!LO:TX:a:t=P:problem:mixed beam	!	!LO:TX:a:t=P:problem:mixed beam	!	!	!	!	!	!	!
4G\	.	8g/L	.	8g/L	.	2.ryy	.	1.r	.	2.ryy	.
.	.	8dd\J	.	8ff\J	.	.	.	.	.	.	.
4GG/	.	8r	.	8r	.	.	.	.	.	.	.
.	.	8d/	.	8b\	.	.	.	.	.	.	.
.	.	8qqd/	.	8qqb/	.	.	.	.	.	.	.
4C/	.	4e/	.	4cc\	.	.	.	.	.	.	.
!	!	!LO:LB:g=original	!	!LO:LB:g=original	!	!	!	!	!	!	!
=19	=19	=19	=19	=19	=19	=19	=19	=19	=19	=19	=19
*	*	*	*	*Xtuplet	*	*	*	*	*	*	*
4F\	.	4dd\	.	12aa\L	.	2.ryy	.	.	.	2.ryy	.
.	.	.	.	12gg\	.	.	.	.	.	.	.
.	.	.	.	12ff\J	.	.	.	.	.	.	.
4G\	.	4cc\	.	4ee\	.	.	.	.	.	.	.
4GG/	.	4b\	.	4dd\	.	.	.	.	.	.	.
=20	=20	=20	=20	=20	=20	=20	=20	=20	=20	=20	=20
!	!	!LO:TX:a:t=P:problem:mixed beam	!	!LO:TX:a:t=P:problem:mixed beam	!	!	!	!	!	!	!
8C\L	.	8cc\L	.	8cc\L	.	2.ryy	.	2.r	.	2.ryy	.
16C\L	.	16c/L	.	16c/L	.	.	.	.	.	.	.
16E\JJ	.	16e/JJ	.	16e/JJ	.	.	.	.	.	.	.
8G\L	.	8g/L	.	8g/L	.	.	.	.	.	.	.
8E\J	.	8e/J	.	8e/J	.	.	.	.	.	.	.
4C;;/	.	4c;;/	.	4c;;/	.	.	.	.	.	.	.
=21	=21	=21	=21	=21	=21	=21	=21	=21	=21	=21	=21
!l	!LO:DY:a	!	!LO:DY:a	!	!	!	!	!LO:TX:a:i:t=solo.	!	!	!
4C\	p	4e/	p	4cc\	.	2.ryy	.	4c\	Chri-	2.ryy	.
4E\	.	4g/	.	4.cc\	.	.	.	4.c\	-ste	.	.
4C\	.	4e/	.	.	.	.	.	.	.	.	.
.	.	.	.	(>16ee\LL	.	.	.	(>16e\LL	e-	.	.
.	.	.	.	16cc\JJ)	.	.	.	16c\JJ)	.	.	.
=22	=22	=22	=22	=22	=22	=22	=22	=22	=22	=22	=22
8F\L	.	8a/L	.	8ff\L	.	2.ryy	.	8f\L	-lei-	2.ryy	.
8G\J	.	16f/L	.	(>16dd\L	.	.	.	16d\L	.	.	.
.	.	16d/JJ	.	16b\JJ)	.	.	.	16B\JJ	.	.	.
!	!	!LO:TX:a:t=P:problem:mixed beam	!	!	!	!	!	!	!	!	!
.	.	.	.	.	.	.	.	8qqB/	.	.	.
4C/	.	8e/L	.	(>8cc\L	.	.	.	4c\	-son	.	.
.	.	8ee\J	.	8gg\)	.	.	.	.	.	.	.
4r	.	8g/L	.	(>8ee\	.	.	.	8r	.	.	.
.	.	8e/J	.	8cc\J)	.	.	.	8c\	e-	.	.
!LO:LB:g=original	!	!	!	!	!	!	!	!	!	!	!
=23	=23	=23	=23	=23	=23	=23	=23	=23	=23	=23	=23
8F#\L	.	8a/L	.	8ff\L	.	2.ryy	.	8f\L	-lei-	2.ryy	.
8G\	.	(<16f/L	.	16dd\L	.	.	.	16d\L	.	.	.
.	.	16d/JJ)	.	16b\JJ	.	.	.	16B\JJ	.	.	.
.	.	8qqd/	.	8qqb/	.	.	.	8qqB/	.	.	.
8c\	.	2e/	.	2cc/	.	.	.	2c\	-son	.	.
8G\	.	.	.	.	.	.	.	.	.	.	.
8E\	.	.	.	.	.	.	.	.	.	.	.
8C\J	.	.	.	.	.	.	.	.	.	.	.
=24	=24	=24	=24	=24	=24	=24	=24	=24	=24	=24	=24
8c\L	.	8cc\L	.	8cc\L	.	2.ryy	.	4c\	Chri-	2.ryy	.
8c\	.	8cc\	.	8cc\	.	.	.	.	.	.	.
8B\	.	8b\	.	8b\	.	.	.	4B\	-ste	.	.
8B\	.	8b\	.	8b\	.	.	.	.	.	.	.
8A\	.	8a\	.	8a\	.	.	.	4A\	e-	.	.
8A\J	.	8a\J	.	8a\J	.	.	.	.	.	.	.
=25	=25	=25	=25	=25	=25	=25	=25	=25	=25	=25	=25
(>16G\LL	.	(<16g/LL	.	16g/LL	.	2.ryy	.	16G/LL	-lei-	2.ryy	.
16F#X\JJ)	.	16f#X/JJ)	.	16f#X/JJ	.	.	.	16F#X/JJ	.	.	.
4G\	.	4g/	.	4g/	.	.	.	4G/	.	.	.
(>16A\LL	.	(<16a/LL	.	16a/LL	.	.	.	16A/LL	.	.	.
16F#X\JJ)	.	16f#X/JJ)	.	16f#X/JJ	.	.	.	16F#X/JJ	.	.	.
.	.	8qqf#/	.	.	.	.	.	.	.	.	.
4G\	.	4g/	.	4g/	.	.	.	4G/	-son	.	.
!	!	!	!	!	!	!	!	!LO:LB:g=original	!	!	!
=26	=26	=26	=26	=26	=26	=26	=26	=26	=26	=26	=26
8c\L	.	8cc\L	.	8cc\L	.	2.ryy	.	4c\	Chri-	2.ryy	.
8c\	.	8cc\	.	8cc\	.	.	.	.	.	.	.
8B\	.	8b\	.	8b\	.	.	.	4B\	-ste	.	.
8B\	.	8b\	.	8b\	.	.	.	.	.	.	.
8A\	.	8a\	.	8a\	.	.	.	4A\	e-	.	.
8A\J	.	8a\J	.	8a\J	.	.	.	.	.	.	.
=27	=27	=27	=27	=27	=27	=27	=27	=27	=27	=27	=27
(>16G\LL	.	(<16g/LL	.	16g/LL	.	2.ryy	.	16G/LL	-lei-	2.ryy	.
16F#X\JJ)	.	16f#X/JJ)	.	16f#X/JJ	.	.	.	16F#X/JJ	.	.	.
4G\	.	4g/	.	4g/	.	.	.	4G/	.	.	.
(>16A\LL	.	(<16a/LL	.	16a/LL	.	.	.	16A/LL	.	.	.
16F#X\JJ)	.	16f#X/JJ)	.	16f#X/JJ	.	.	.	16F#X/JJ	.	.	.
.	.	.	.	8qqf#/	.	.	.	.	.	.	.
4G\	.	4g/	.	4g/	.	.	.	4G/	-son	.	.
!	!	!	!	!LO:LB:g=original	!	!	!	!	!	!	!
=28	=28	=28	=28	=28	=28	=28	=28	=28	=28	=28	=28
8G\L	.	8b\L	.	8dd\L	.	2.ryy	.	4d\	Chri-	2.ryy	.
8G\	.	8b\	.	8dd\	.	.	.	.	.	.	.
8G\	.	8b\	.	8dd\	.	.	.	4d\	-ste	.	.
8G\	.	8b\	.	8dd\	.	.	.	.	.	.	.
8G\	.	8b\	.	8dd\	.	.	.	4d\	e-	.	.
8G\J	.	8b\J	.	8dd\J	.	.	.	.	.	.	.
!	!	!LO:LB:g=original	!	!	!	!	!	!	!	!	!
=29	=29	=29	=29	=29	=29	=29	=29	=29	=29	=29	=29
8C\L	.	8g/L	.	8ee\L	.	2.ryy	.	8e\	-lei-	2.ryy	.
8C\	.	8g/	.	8ee\	.	.	.	4c\	.	.	.
8C\	.	8g/	.	8ee\	.	.	.	.	.	.	.
8C\	.	8g/	.	8ee\	.	.	.	8g\L	.	.	.
8C\	.	8g/	.	8ee\	.	.	.	8e\	.	.	.
8C\J	.	8g/J	.	8ee\J	.	.	.	8c\J	.	.	.
=30	=30	=30	=30	=30	=30	=30	=30	=30	=30	=30	=30
8G\L	.	8b\L	.	8dd\L	.	2.ryy	.	8d\	.	2.ryy	.
8G\	.	8b\	.	8dd\	.	.	.	4B\	.	.	.
8G\	.	8b\	.	8dd\	.	.	.	.	.	.	.
8G\	.	8b\	.	8dd\	.	.	.	8g\L	.	.	.
8G\	.	8b\	.	8dd\	.	.	.	8d\	.	.	.
8G\J	.	8b\J	.	8dd\J	.	.	.	8B\J	.	.	.
=31	=31	=31	=31	=31	=31	=31	=31	=31	=31	=31	=31
!	!	!	!	!	!	!	!	!LO:TX:a:t==vi	!	!	!
!	!	!	!	!	!	!	!	!LO:TX:t=P:problem:następny takt pominięty i dopisany na końcu 5. systemu.	!	!	!
8D\L	.	8a/L	.	8cc\L	.	2.ryy	.	8c\	.	2.ryy	.
8D\	.	8a/	.	8cc\	.	.	.	4A\	.	.	.
8D\	.	8a/	.	8cc\	.	.	.	.	.	.	.
8D\	.	8cc/	.	8ee\	.	.	.	8e\L	.	.	.
8D\	.	8b/	.	8dd\	.	.	.	8d\	.	.	.
8D\J	.	8a/J	.	8cc\J	.	.	.	8c\J	.	.	.
=32	=32	=32	=32	=32	=32	=32	=32	=32	=32	=32	=32
4D\	.	4a/	.	4cc\	.	2.ryy	.	4c\	.	2.ryy	.
4GG/	.	4g/	.	4b\	.	.	.	4B\	-son	.	.
4D\	.	4f#X/	.	4a\	.	.	.	4A\	e-	.	.
=33	=33	=33	=33	=33	=33	=33	=33	=33	=33	=33	=33
4GG/	.	4g/	.	(>4b\	.	2.ryy	.	(>8B\L	-lei-	2.ryy	.
.	.	.	.	.	.	.	.	8d\)	.	.	.
4r	.	4a/	.	4cc\)	.	.	.	(>8c\	.	.	.
.	.	.	.	.	.	.	.	8e\)	.	.	.
4r	.	4b/	.	4dd\|	.	.	.	(>8d\	.	.	.
.	.	.	.	.	.	.	.	8g\J)	.	.	.
=34	=34	=34	=34	=34	=34	=34	=34	=34	=34	=34	=34
4GG/	.	4g/	.	4b\|	.	2.ryy	.	(>8B\L	.	2.ryy	.
.	.	.	.	.	.	.	.	8d\)	.	.	.
4r	.	4a/	.	(>4cc\	.	.	.	(>8c\	.	.	.
.	.	.	.	.	.	.	.	8e\)	.	.	.
4r	.	4b/	.	4dd\)	.	.	.	(>8d\	.	.	.
.	.	.	.	.	.	.	.	8g\J)	.	.	.
=35	=35	=35	=35	=35	=35	=35	=35	=35	=35	=35	=35
!	!	!	!	!	!	!	!	!LO:TUP:a:problem:klamra łukowa, falowana linia zamiast numeru	!	!	!
4C/	.	2.r	.	2.r	.	2.ryy	.	12e\L	.	2.ryy	.
.	.	.	.	.	.	.	.	12d\	.	.	.
.	.	.	.	.	.	.	.	12c\J	.	.	.
4D/	.	.	.	.	.	.	.	4B\	.	.	.
4D/	.	.	.	.	.	.	.	4A\	.	.	.
=36	=36	=36	=36	=36	=36	=36	=36	=36	=36	=36	=36
!	!LO:DY:a	!	!LO:DY:a	!	!LO:DY:a	!	!	!	!	!	!
8G\L	f	8gg\L	f	8gg\L	f	2.ryy	.	4G/	-son	2.ryy	.
8G\	.	8gg\	.	8gg\	.	.	.	.	.	.	.
8F#X\	.	8ff#X\	.	8ff#X\	.	.	.	4r	.	.	.
8F#\	.	8ff#\	.	8ff#\	.	.	.	.	.	.	.
8E\	.	8ee\	.	8ee\	.	.	.	4r	.	.	.
8E\J	.	8ee\J	.	8ee\J	.	.	.	.	.	.	.
!LO:LB:g=original	!	!	!	!	!	!	!	!	!	!	!
!	!	!	!	!	!	!	!	!LO:LB:g=original	!	!	!
=37	=37	=37	=37	=37	=37	=37	=37	=37	=37	=37	=37
(<16D/LL	.	16dd\LL	.	(>16dd\LL	.	2.ryy	.	0.r	.	2.ryy	.
16C#X/JJ)	.	16cc#X\JJ	.	16cc#X\JJ)	.	.	.	.	.	.	.
4D/	.	4dd\	.	4dd\	.	.	.	.	.	.	.
!	!	!	!	!LO:TX:t=P:problem:przed nutą krzyżyk cc#	!	!	!	!	!	!	!
(<16E/LL	.	16ee\LL	.	16ee\LL	.	.	.	.	.	.	.
16C#X/JJ)	.	16cc#X\JJ	.	16cc#X\JJ	.	.	.	.	.	.	.
.	.	.	.	8qqcc#/	.	.	.	.	.	.	.
4D/	.	4dd\	.	4dd\	.	.	.	.	.	.	.
=38	=38	=38	=38	=38	=38	=38	=38	=38	=38	=38	=38
8G\L	.	8gg\L	.	8gg\L	.	2.ryy	.	.	.	2.ryy	.
8G\	.	8gg\	.	8gg\	.	.	.	.	.	.	.
8F#X\	.	8ff#X\	.	8ff#X\	.	.	.	.	.	.	.
8F#\	.	8ff#\	.	8ff#\	.	.	.	.	.	.	.
8E\	.	8ee\	.	8ee\	.	.	.	.	.	.	.
8E\J	.	8ee\J	.	8ee\J	.	.	.	.	.	.	.
!	!	!	!	!LO:LB:g=original	!	!	!	!	!	!	!
=39	=39	=39	=39	=39	=39	=39	=39	=39	=39	=39	=39
(<16D/LL	.	16dd\LL	.	(>16dd\LL	.	2.ryy	.	.	.	2.ryy	.
16C#X/JJ)	.	16cc#X\JJ	.	16cc#X\JJ)	.	.	.	.	.	.	.
4D/	.	4dd\	.	4dd\	.	.	.	.	.	.	.
(<16E/LL	.	16ee\LL	.	16ee\LL	.	.	.	.	.	.	.
16C#X/JJ)	.	16cc#X\JJ	.	16cc#X\JJ	.	.	.	.	.	.	.
!	!	!LO:TX:t=P:problem: w źródle znajduej się dodatkowa kreska taktowa pomiędzy 16cc#X a 8qqcc#	!	!	!	!	!	!	!	!	!
.	.	8qqcc#/	.	8qqcc#/	.	.	.	.	.	.	.
4D/	.	4dd\	.	4dd\	.	.	.	.	.	.	.
!	!	!LO:LB:g=original	!	!	!	!	!	!	!	!	!
=40	=40	=40	=40	=40	=40	=40	=40	=40	=40	=40	=40
!	!	!	!	!LO:TX:a:t=P:problem:mixed beam	!	!	!	!	!	!	!
4D\	.	8d/L	.	8d/L	.	2.ryy	.	.	.	2.ryy	.
.	.	8a/J	.	8ccn\J	.	.	.	.	.	.	.
4D\	.	8r	.	8r	.	.	.	.	.	.	.
.	.	8A/	.	8f#X/	.	.	.	.	.	.	.
.	.	8qqA/	.	8qqf#/	.	.	.	.	.	.	.
4GG/	.	4B/	.	4g/	.	.	.	.	.	.	.
=41	=41	=41	=41	=41	=41	=41	=41	=41	=41	=41	=41
!	!	!	!	!LO:TX:a:t=P:problem:mixed beam	!	!	!	!	!	!	!
4D\	.	8d/L	.	8d/L	.	2.ryy	.	1.r	.	2.ryy	.
.	.	8a/J	.	8cc\J	.	.	.	.	.	.	.
4D\	.	8r	.	8r	.	.	.	.	.	.	.
.	.	8A/	.	8f#X/	.	.	.	.	.	.	.
.	.	8qqA/	.	8qqf#/	.	.	.	.	.	.	.
4GG/	.	4B/	.	4g/	.	.	.	.	.	.	.
=42	=42	=42	=42	=42	=42	=42	=42	=42	=42	=42	=42
*	*	*	*	*tuplet	*	*	*	*	*	*	*
!	!	!	!	!LO:TUP:a:problem:klamra łukowa, falowana linia zamiast numeru	!	!	!	!	!	!	!
4Cn/	.	4a/	.	12ee\L	.	2.ryy	.	.	.	2.ryy	.
.	.	.	.	12dd\	.	.	.	.	.	.	.
.	.	.	.	12cc\J	.	.	.	.	.	.	.
4D/	.	4g/	.	4b\	.	.	.	.	.	.	.
4D/	.	4f/	.	4a\	.	.	.	.	.	.	.
=43	=43	=43	=43	=43	=43	=43	=43	=43	=43	=43	=43
!LO:TX:a:t=P:problem:mixed beam	!	!	!	!	!	!	!	!	!	!	!
8G\L	.	8g/L	.	8g/L	.	2.ryy	.	2.r	.	2.ryy	.
16GG/L	.	16G/L	.	16G/L	.	.	.	.	.	.	.
16BB/JJ	.	16B/JJ	.	16B/JJ	.	.	.	.	.	.	.
8D/L	.	8d/L	.	8d/L	.	.	.	.	.	.	.
8BB/J	.	8B/J	.	8B/J	.	.	.	.	.	.	.
4GG/	.	4G/	.	4G/	.	.	.	.	.	.	.
=44	=44	=44	=44	=44	=44	=44	=44	=44	=44	=44	=44
!	!LO:DY:a	!	!	!	!	!	!	!	!	!	!
4GG/	p	4b/	.	4b\	.	2.ryy	.	4d\	Chi-	2.ryy	.
4GG/	.	(<8b/L	.	8b\L	.	.	.	(>8d\L	-ste	.	.
.	.	8g/)	.	8b\	.	.	.	8B\J)	.	.	.
4D\	.	(<8a/	.	(>8cc\	.	.	.	(>8c\L	e-	.	.
.	.	8f#X/J)	.	8a\J)	.	.	.	8A\J)	.	.	.
=45	=45	=45	=45	=45	=45	=45	=45	=45	=45	=45	=45
4G\	.	4g/	.	4b\	.	2.ryy	.	4B\	-lei-	2.ryy	.
4GG/	.	(<8g/L	.	(>8b\L	.	.	.	(>8B\L	.	.	.
.	.	8d/)	.	8g\)	.	.	.	8G\)	.	.	.
4D\	.	(8a/	.	(>8cc\	.	.	.	(>8c\	.	.	.
.	.	8f#X\J)	.	8a\J)	.	.	.	8A\J)	.	.	.
=46	=46	=46	=46	=46	=46	=46	=46	=46	=46	=46	=46
4GG/	.	4b/	.	4dd\	.	2.ryy	.	4d\	.	2.ryy	.
4G\	.	(<8b/L	.	(>8dd\L	.	.	.	(>8d\L	.	.	.
.	.	8g/)	.	8b\)	.	.	.	8B\)	.	.	.
4D\	.	(<8a/	.	(>8cc\	.	.	.	(>8c\	.	.	.
.	.	8f#X/J)	.	8a\J)	.	.	.	8A\J)	.	.	.
=47	=47	=47	=47	=47	=47	=47	=47	=47	=47	=47	=47
.	.	.	.	.	.	.	.	8qqA/	.	.	.
!LO:TX:a:t=P:problem:mixed beam	!LO:DY:a	!	!LO:DY:a	!	!	!	!	!	!	!	!
8GG\L	f	8g/L	f	8b/L	.	2.ryy	.	4B\	-son	2.ryy	.
8G\	.	8g/	.	8g/	.	.	.	.	.	.	.
8D/	.	8d/	.	8d/	.	.	.	4r	.	.	.
8BB/J	.	8B/J	.	8B/J	.	.	.	.	.	.	.
4GG/	.	4G/	.	4G/	.	.	.	4r	.	.	.
=48	=48	=48	=48	=48	=48	=48	=48	=48	=48	=48	=48
!	!LO:DY:a	!	!	!	!	!	!	!	!	!	!
4GG/	p	4b/	.	4dd\	.	2.ryy	.	4d\	Chri-	2.ryy	.
4GG/	.	(<8b/L	.	(>8dd\L	.	.	.	(>8d\L	-ste	.	.
.	.	8g/)	.	8b\)	.	.	.	8B\J)	.	.	.
4D\	.	(<8a/	.	(>8cc\	.	.	.	(>8c\L	e-	.	.
.	.	8f#X/J)	.	8a\J)	.	.	.	8A\J)	.	.	.
!	!	!LO:LB:g=original	!	!LO:LB:g=original	!	!	!	!	!	!	!
=49	=49	=49	=49	=49	=49	=49	=49	=49	=49	=49	=49
4GG/	.	4g/	.	4b\	.	2.ryy	.	4B\	-lei-	2.ryy	.
4G\	.	(<8g/L	.	(>8b\L	.	.	.	(>8B\L	.	.	.
.	.	8d/)	.	8g\)	.	.	.	8G\)	.	.	.
4D\	.	(<8a/	.	(>8cc\	.	.	.	(>8c\	.	.	.
.	.	8f#X/J)	.	8a\J)	.	.	.	8A\J)	.	.	.
=50	=50	=50	=50	=50	=50	=50	=50	=50	=50	=50	=50
4GG/	.	4b\	.	4dd\	.	2.ryy	.	4d\	.	2.ryy	.
4G\	.	(<8b/L	.	(>8dd\L	.	.	.	(>8d\L	.	.	.
.	.	8g/)	.	8b\)	.	.	.	8B\)	.	.	.
4D\	.	(<8a/	.	(>8cc\	.	.	.	(>8c\	.	.	.
.	.	8f#X/J)	.	8a\J)	.	.	.	8A\J)	.	.	.
=51	=51	=51	=51	=51	=51	=51	=51	=51	=51	=51	=51
4G\	.	4g\	.	4b\	.	2.ryy	.	8B\	-son	2.ryy	.
.	.	.	.	.	.	.	.	8G/	e-	.	.
4A\	.	4cc\	.	2ffn\	.	.	.	2fn\	-lei-	.	.
4B\	.	4dd\	.	.	.	.	.	.	.	.	.
=52	=52	=52	=52	=52	=52	=52	=52	=52	=52	=52	=52
.	.	8qqdd/	.	8qqff/	.	.	.	.	.	.	.
4c\	.	4cc\	.	4ee\	.	2.ryy	.	4e\	.	2.ryy	.
!	!	!	!	!LO:TX:a:t=P:problem:mixed beam	!LO:DY:a	!	!	!	!	!	!
4G\	.	8b\L	.	8dd\L	f	.	.	4d\	-son	.	.
.	.	(>16g\L	.	(<16g/L	.	.	.	.	.	.	.
.	.	16f#X\JJ)	.	16f#X\JJ)	.	.	.	.	.	.	.
4r	.	4g/	.	4g/	.	.	.	4r	.	.	.
!	!	!	!	!	!	!	!	!LO:LB:g=original	!	!	!
=53	=53	=53	=53	=53	=53	=53	=53	=53	=53	=53	=53
!	!	!	!	!	!LO:DY:a	!	!	!	!	!	!
4C\	.	4e/	.	4cc\	p	2.ryy	.	4c\	Chri-	2.ryy	.
4E\	.	4g/	.	4.cc\	.	.	.	4.c\	-ste	.	.
4C\	.	4e/	.	.	.	.	.	.	.	.	.
.	.	.	.	(>16ee\LL	.	.	.	(>16e\LL	e-	.	.
.	.	.	.	16cc\JJ)	.	.	.	16c\JJ)	.	.	.
!LO:LB:g=original	!	!	!	!	!	!	!	!	!	!	!
=54	=54	=54	=54	=54	=54	=54	=54	=54	=54	=54	=54
8F#\L	.	8a/L	.	8ff\L	.	2.ryy	.	8f\L	-lei-	2.ryy	.
8G\J	.	(<16f/L	.	16dd\L	.	.	.	(>16d\L	.	.	.
.	.	16d/JJ)	.	16b\JJ	.	.	.	16B\JJ)	.	.	.
!	!	!LO:TX:a:t=P:problem:mixed beam	!	!	!	!	!	!	!	!	!
.	.	.	.	.	.	.	.	8qqB/	.	.	.
4C/	.	8e/L	.	8cc`\L	.	.	.	4c\	-son	.	.
.	.	8ee\J	.	8gg`\	.	.	.	.	.	.	.
4r	.	(8g/L	.	(>8ee\	.	.	.	8r	.	.	.
.	.	8e/J)	.	8cc\J)	.	.	.	8c\	e-	.	.
=55	=55	=55	=55	=55	=55	=55	=55	=55	=55	=55	=55
8F\L	.	8a/L	.	8ff\L	.	2.ryy	.	8f\L	-lei-	2.ryy	.
8G\	.	16f/L	.	16dd\L	.	.	.	16d\L	.	.	.
.	.	16d/JJ	.	16b\JJ	.	.	.	16B\JJ	.	.	.
.	.	8qqd/	.	8qqb/	.	.	.	8qqB/	.	.	.
8c\	.	2e/	.	2cc\	.	.	.	2c\	-son	.	.
8G\	.	.	.	.	.	.	.	.	.	.	.
8E\	.	.	.	.	.	.	.	.	.	.	.
8C\J	.	.	.	.	.	.	.	.	.	.	.
=56	=56	=56	=56	=56	=56	=56	=56	=56	=56	=56	=56
8C/L	.	8b-X\L	.	8gg\L	.	2.ryy	.	4g\	Chri-	2.ryy	.
8C/	.	8b-\	.	8gg\	.	.	.	.	.	.	.
8C/	.	8b-\	.	8gg\	.	.	.	2B-X\	.	.	.
8C/	.	8b-\	.	8gg\	.	.	.	.	.	.	.
8C/	.	8b-\	.	8gg\	.	.	.	.	.	.	.
8C/J	.	8b-\J	.	8gg\J	.	.	.	.	.	.	.
=57	=57	=57	=57	=57	=57	=57	=57	=57	=57	=57	=57
!	!	!	!	!LO:TX:a:t=P:problem:mixed beam	!	!	!	!	!	!	!
.	.	.	.	.	.	.	.	8qqB/	.	.	.
8F\L	f	8a/L	f	8ff\L	.	2.ryy	.	4A\	-ste	2.ryy	.
(>16F\L	.	(<16f/L	.	16f/L	f	.	.	.	.	.	.
16E\JJ)	.	16e/JJ)	.	16e/JJ	.	.	.	.	.	.	.
8F\L	.	8f/L	.	8f/L	.	.	.	4r	.	.	.
(>16A\L	.	(<16a/L	.	(<16a/L	.	.	.	.	.	.	.
16E\JJ)	.	16e/JJ)	.	16e/JJ)	.	.	.	.	.	.	.
.	.	8qqe/	.	.	.	.	.	.	.	.	.
4F\	.	4f/	.	4f/	.	.	.	4r	.	.	.
!	!	!LO:LB:g=original	!	!	!	!	!	!	!	!	!
=58	=58	=58	=58	=58	=58	=58	=58	=58	=58	=58	=58
!	!LO:DY:a	!	!LO:DY:a	!	!LO:DY:a	!	!	!	!	!	!
8D\L	p	8cc\L	p	8aa\L	p	2.ryy	.	4a\	e-	2.ryy	.
8D\	.	8cc\	.	8aa\	.	.	.	.	.	.	.
8D\	.	8cc\	.	8aa\	.	.	.	2c\	-lei-	.	.
8D\	.	8cc\	.	8aa\	.	.	.	.	.	.	.
8D\	.	8cc\	.	8aa\	.	.	.	.	.	.	.
8D\J	.	8cc\J	.	8aa\J	.	.	.	.	.	.	.
=59	=59	=59	=59	=59	=59	=59	=59	=59	=59	=59	=59
!	!	!	!	!LO:TX:a:t=P:problem:mixed beam	!	!	!	!	!	!	!
.	.	.	.	.	.	.	.	8qqc/	.	.	.
!	!LO:DY:a	!	!LO:DY:a	!	!LO:DY:a	!	!	!	!	!	!
8G\L	f	8bn/L	f	8gg\L	f	2.ryy	.	4B\	-son	2.ryy	.
(>16G\L	.	(<16g/L	.	16g/L	.	.	.	.	.	.	.
16F#X\JJ)	.	16f#X/JJ)	.	16f#X\JJ	.	.	.	.	.	.	.
8G\L	.	8g/L	.	8g/L	.	.	.	4r	.	.	.
(>16B\L	.	(<16b/L	.	16b/L	.	.	.	.	.	.	.
16F#X\JJ)	.	16f#X/JJ)	.	16f#X/JJ	.	.	.	.	.	.	.
4G\	.	4g/	.	4g/	.	.	.	4r	.	.	.
!	!	!	!	!LO:LB:g=original	!	!	!	!	!	!	!
=60	=60	=60	=60	=60	=60	=60	=60	=60	=60	=60	=60
!	!LO:DY:a	!LO:TX:a:t=P:problem:mixed beam	!LO:DY:a	!LO:TX:a:t=P:problem:mixed beam	!	!	!	!	!	!	!
4G\	p	8g/L	p	8g/L	.	2.ryy	.	(>16d\LL	e-	2.ryy	.
.	.	.	.	.	.	.	.	16e\JJ)	.	.	.
.	.	8dd\J	.	8ffn\J	.	.	.	4f\	-lei-	.	.
4GG/	.	8r	.	8r	.	.	.	.	.	.	.
.	.	8d/	.	8b\	.	.	.	(>16d\LL	.	.	.
.	.	.	.	.	.	.	.	16B\JJ)	.	.	.
!	!	!	!	!	!	!	!	!LO:TX:t=P:problem:po tym takcie wpisany takt do wstawienia w t. 31	!	!	!
.	.	8qqd/	.	8qqb/	.	.	.	8qqB/	.	.	.
4C/	.	4e/	.	4cc\	.	.	.	4c\	-son	.	.
!	!	!	!	!	!	!	!	!LO:LB:g=original	!	!	!
=61	=61	=61	=61	=61	=61	=61	=61	=61	=61	=61	=61
!	!	!LO:TX:a:t=P:problem:mixed beam	!	!LO:TX:a:t=P:problem:mixed beam	!	!	!	!	!	!	!
4G\	.	8g/L	.	8g/L	.	2.ryy	.	(>16d\LL	e-	2.ryy	.
.	.	.	.	.	.	.	.	16e\JJ)	.	.	.
.	.	8dd\J	.	8ff\J	.	.	.	4f\	-lei-	.	.
4GG/	.	8r	.	8r	.	.	.	.	.	.	.
.	.	8d/	.	8b\	.	.	.	(>16d\LL	.	.	.
.	.	.	.	.	.	.	.	16B\JJ)	.	.	.
.	.	8qqd/	.	8qqb/	.	.	.	8qqB/	.	.	.
4C/	.	4e/	.	4cc\	.	.	.	4c\	son	.	.
=62	=62	=62	=62	=62	=62	=62	=62	=62	=62	=62	=62
!	!	!LO:TUP:a:problem:klamra łukowa, falowana linia zamiast numeru	!	!LO:TUP:a:problem:klamra łukowa, falowana linia zamiast numeru	!	!	!	!	!	!	!
*	*	*	*	*	*	*	*	*Xtuplet	*	*	*
4F\	.	12ff\L	.	12aa\L	.	2.ryy	.	12a\L	E-	2.ryy	.
.	.	12ee\	.	12gg\	.	.	.	12g\	.	.	.
.	.	12dd\J	.	12ff\J	.	.	.	12f\J	.	.	.
4G\	.	4cc\	.	4ee\	.	.	.	4e\	-lei-	.	.
4GG/	.	4b\	.	4dd\	.	.	.	4d\	.	.	.
=63	=63	=63	=63	=63	=63	=63	=63	=63	=63	=63	=63
!LO:TX:a:t=P:problem:mixed beam	!	!	!LO:DY:a	!	!LO:DY:a	!	!	!	!	!	!
8C/L	.	8cc\L	f	8cc\L	f	2.ryy	.	4c\	-son	2.ryy	.
16c\L	.	16cc\L	.	16cc\L	.	.	.	.	.	.	.
16B\JJ	.	16b\JJ	.	16b\JJ	.	.	.	.	.	.	.
8c\L	.	8cc\L	.	8cc\L	.	.	.	4r	.	.	.
8e\J	.	8ee\J	.	8ee\J	.	.	.	.	.	.	.
4C/	.	4c/	.	4c/	.	.	.	4r	.	.	.
=64	=64	=64	=64	=64	=64	=64	=64	=64	=64	=64	=64
!	!LO:DY:a	!LO:TX:a:t=P:problem:mixed beamam	!	!LO:TX:a:t=P:problem:mixed beam	!LO:DY:a	!	!	!	!	!	!
4G\	p	8g/L	.	8g/L	p	2.ryy	.	(>16d\LL	e-	2.ryy	.
.	.	.	.	.	.	.	.	16e\JJ)	.	.	.
.	.	8dd\J	.	8ff\J	.	.	.	4f\	-lei-	.	.
4GG/	.	8r	.	8r	.	.	.	.	.	.	.
.	.	8d/	.	8b\	.	.	.	(>16d\LL	.	.	.
.	.	.	.	.	.	.	.	16B\JJ)	.	.	.
.	.	8qqd/	.	8qqb/	.	.	.	8qqB/	.	.	.
4C/	.	4e/	.	4cc\	.	.	.	4c\	-son	.	.
=65	=65	=65	=65	=65	=65	=65	=65	=65	=65	=65	=65
!	!	!LO:TX:a:t=P:problem:mixed beam	!	!LO:TX:a:t=P:problem:mixed beam	!	!	!	!	!	!	!
4G\	.	8g/L	.	8g/L	.	2.ryy	.	(>16d\LL	e-	2.ryy	.
.	.	.	.	.	.	.	.	16e\JJ)	.	.	.
.	.	8dd\J	.	8ff\J	.	.	.	4f\	-lei-	.	.
4GG/	.	8r	.	8r	.	.	.	.	.	.	.
.	.	8d/	.	8b\	.	.	.	(>16d\LL	.	.	.
.	.	.	.	.	.	.	.	16B\JJ)	.	.	.
.	.	8qqd/	.	8qqb/	.	.	.	8qqB/	.	.	.
4C/	.	4e/	.	4cc\	.	.	.	4c\	-son	.	.
=66	=66	=66	=66	=66	=66	=66	=66	=66	=66	=66	=66
!	!	!LO:TUP:a:problem:klamra łukowa, falowana linia zamiast numeru	!	!LO:TUP:a:problem:klamra łukowa, falowana linia zamiast numeru	!	!	!	!	!	!	!
4F\	.	12ff\L	.	12aa\L	.	2.ryy	.	12a\L	e-	2.ryy	.
.	.	12ee\	.	12gg\	.	.	.	12g\	.	.	.
.	.	12dd\J	.	12ff\J	.	.	.	12f\J	.	.	.
4G\	.	4cc\	.	4ee\	.	.	.	4e\	-lei-	.	.
!LO:TX:a:t=Dacapo	!	!LO:TX:a:t=Daca \npo	!	!LO:TX:a:t=Dacapo	!	!	!	!	!	!	!
!LO:TX:t=P:problem: w źródle "Dacapo" zapisane na pięciolinii, za kreską taktową	!	!LO:TX:t=P:problem: w źródle "Dacapo" zapisane na pięciolinii, za 4b	!	!LO:TX:t=P:problem: w źródle "Dacapo" zapisane na pięciolinii, za kreską taktową	!	!	!	!	!	!	!
4GG/	.	4b\	.	4dd\	.	.	.	4d\	.	.	.
!LO:LB:g=original	!	!LO:LB:g=original	!	!	!	!	!	!	!	!	!
=67	=67	=67	=67	=67	=67	=67	=67	=67	=67	=67	=67
!	!	!	!	!	!	!LO:TX:t=P:problem:w T. da capo rozpisane w postaci 12 taktów pauzy	!	!	!	!	!
2.ryy	.	2.ryy	.	2.ryy	.	2.ryy	.	4c\	-son	2.ryy	.
!LO:TX:t=P:problem:w partii głosowej pominięty fragment utworu	!	!LO:TX:t=P:problem:w partii głosowej pominięty fragment utworu	!	!LO:TX:t=P:problem:w partii głosowej pominięty fragment utworu	!	!	!	!	!	!	!
.	.	.	.	.	.	.	.	4r	.	.	.
.	.	.	.	.	.	.	.	4r	.	.	.
=68	=68	=68	=68	=68	=68	=68	=68	=68	=68	=68	=68
2.ryy	.	2.ryy	.	2.ryy	.	2.ryy	.	2.r	.	2.ryy	.
=69	=69	=69	=69	=69	=69	=69	=69	=69	=69	=69	=69
2.ryy	.	2.ryy	.	2.ryy	.	2.ryy	.	2.r	.	2.ryy	.
=70	=70	=70	=70	=70	=70	=70	=70	=70	=70	=70	=70
2.ryy	.	2.ryy	.	2.ryy	.	2.ryy	.	2.r	.	2.ryy	.
=71	=71	=71	=71	=71	=71	=71	=71	=71	=71	=71	=71
2.ryy	.	2.ryy	.	2.ryy	.	2.ryy	.	2.r	.	2.ryy	.
=72	=72	=72	=72	=72	=72	=72	=72	=72	=72	=72	=72
2.ryy	.	2.ryy	.	2.ryy	.	2.ryy	.	2.r	.	2.ryy	.
=73	=73	=73	=73	=73	=73	=73	=73	=73	=73	=73	=73
2.ryy	.	2.ryy	.	2.ryy	.	2.ryy	.	2.r	.	2.ryy	.
=74	=74	=74	=74	=74	=74	=74	=74	=74	=74	=74	=74
2.ryy	.	2.ryy	.	2.ryy	.	2.ryy	.	2.r	.	2.ryy	.
=75	=75	=75	=75	=75	=75	=75	=75	=75	=75	=75	=75
2.ryy	.	2.ryy	.	2.ryy	.	2.ryy	.	2.r	.	2.ryy	.
=76	=76	=76	=76	=76	=76	=76	=76	=76	=76	=76	=76
2.ryy	.	2.ryy	.	2.ryy	.	2.ryy	.	2.r	.	2.ryy	.
=77	=77	=77	=77	=77	=77	=77	=77	=77	=77	=77	=77
2.ryy	.	2.ryy	.	2.ryy	.	2.ryy	.	2.r	.	2.ryy	.
=78	=78	=78	=78	=78	=78	=78	=78	=78	=78	=78	=78
2.ryy	.	2.ryy	.	2.ryy	.	2.ryy	.	2.r	.	2.ryy	.
=79	=79	=79	=79	=79	=79	=79	=79	=79	=79	=79	=79
2.ryy	.	2.ryy	.	2.ryy	.	2.ryy	.	2.r	.	2.ryy	.
!	!	!	!	!LO:LB:g=original	!	!	!	!	!	!	!
!	!	!	!	!	!	!LO:LB:g=original	!	!LO:LB:g=original	!	!	!
=80||	=80||	=80||	=80||	=80||	=80||	=80||	=80||	=80||	=80||	=80||	=80||
*k[f#]	*	*k[f#]	*	*k[f#]	*	*k[f#]	*	*k[f#]	*	*k[f#]	*
*G:	*	*G:	*	*G:	*	*G:	*	*G:	*	*G:	*
*M2/4	*	*M2/4	*	*M2/4	*	*M2/4	*	*M2/4	*	*M2/4	*
!LO:TX:a:t=Allo	!	!LO:TX:b:t=Kirie	!	!LO:TX:b:t=Kirie	!	!	!	!	!	!	!
!LO:TX:b:t=Kirie	!	!LO:TX:a:t=allo	!	!LO:TX:a:t=Allo	!	!LO:TX:a:t=allo	!	!	!	!LO:TX:a:t=allo.	!
8G\L	.	8g/L	.	8g/L	.	8G\	Ki-	8G\	Ki-	8g\	Ki-
(>16A\L	.	(<16a/L	.	(<16a/L	.	(>16A\LL	-ri-	(>16A\LL	-ri-	(>16a\LL	-ri-
16B\JJ)	.	16b/JJ)	.	16b/JJ)	.	16B\JJ)	.	16B\JJ)	.	16b\JJ)	.
(>16c\LL	.	(>16cc\LL	.	(<16cc/LL	.	(>16c\LL	-e	(>16c\LL	-e	(>16cc\LL	-e
16B\)	.	16b\)	.	16b/)	.	16B\JJ)	.	16B\JJ)	.	16b\JJ)	.
(>16A\	.	(>16b\	.	(<16a/	.	(>16A\LL	e-	(>16A\LL	e-	(>16a\LL	e-
16G\JJ)	.	16g\JJ)	.	16g/JJ)	.	16G\JJ)	.	16G\JJ)	.	16g\JJ)	.
=81	=81	=81	=81	=81	=81	=81	=81	=81	=81	=81	=81
4c#X\	.	4cc#X\	.	4cc#X\	.	4c#X\	-lei-	4c#X\	-lei-	4cc#X\	-lei-
8d\L	.	8dd\L	.	(>8dd\L	.	8d\	-son	8d\	-son	8dd\	-son
8e\J	.	8ee\J	.	8ee\J)	.	8e\	e-	8e\	e-	8ee\	e-
=82	=82	=82	=82	=82	=82	=82	=82	=82	=82	=82	=82
8cn\L	.	8ccn\L	.	8ccn\L	.	8cn\L	-lei-	8cn\L	-lei-	8ccn\L	-lei-
8A\	.	8a\J	.	8a\J	.	8A\	.	8A\J	.	8a\	.
8F#\	.	8f#/L	.	8f#/L	.	8F#\	.	8F#/L	.	8f#\	.
8D\J	.	8d/J	.	8d/J	.	8D\J	.	8D/J	.	8d\J	.
=83	=83	=83	=83	=83	=83	=83	=83	=83	=83	=83	=83
16G\LL	.	(<16g/LL	.	(<16g/LL	.	4G\	-son	4G/	-son	4g\	-son
16A\	.	16a/)	.	16a/)	.	.	.	.	.	.	.
16B\	.	(<16b/	.	(<16b/	.	.	.	.	.	.	.
16A\JJ	.	16a/JJ)	.	16a/JJ)	.	.	.	.	.	.	.
!LO:TX:a:t=P:problem:mixed beam	!	!	!	!	!	!	!	!	!	!	!
8G\L	.	8g/L	.	8g/L	.	4r	.	4r	.	4r	.
8GG/J	.	8d/J	.	8d/J	.	.	.	.	.	.	.
=84	=84	=84	=84	=84	=84	=84	=84	=84	=84	=84	=84
8G\L	.	8g/L	.	8g/L	.	8G\	Ky-	8G\	Ki-	8g\	Ki-
(>16A\L	.	16a/L	.	(<16a/L	.	16A\LL	-ri-	(>16A\LL	-ri-	(>16a\LL	-ri-
16B\JJ)	.	16b/JJ	.	16b/JJ)	.	16B\JJ	.	16B\JJ)	.	16b\JJ)	.
16c\LL	.	(>16cc\LL	.	16cc'/LL	.	16c\LL	-e	(>16c\LL	-e	(>16cc\LL	-e
16B\	.	16b\)	.	16b'/	.	16B\JJ	.	16B\JJ)	.	16b\JJ)	.
16A\	.	(>16a\	.	16a'/	.	16A\LL	e-	(<16A/LL	e-	(>16a\LL	.
16G\JJ	.	16g\JJ)	.	16g'/JJ	.	16G\JJ	.	16G/JJ)	.	16g\JJ)	e-
=85	=85	=85	=85	=85	=85	=85	=85	=85	=85	=85	=85
(>4c#X\	.	4cc#X\	.	4cc#X\	.	4c#X\	-lei-	4c#X\	-lei-	4cc#X\	-lei-
8d\L)	.	8dd\L	.	(>8dd\L	.	8d\	-son	8d\	-son	8dd\	-son
8G\J	.	8b\J	.	8gg\J)	.	8G\	e-	8G/	e-	8b\	e-
=86	=86	=86	=86	=86	=86	=86	=86	=86	=86	=86	=86
!LO:TX:a:t=P:problem:mixed beam	!	!	!	!	!	!LO:TX:a:t=P:problem:mixed beam	!	!	!	!	!
8F#\L	.	8a/L	.	8ccn\L	.	8F#\L	-lei-	4A/	-lei-	4ccn\	-lei-
8D\	.	8cc/	.	8aa\	.	8D\	.	.	.	.	.
8G\	.	8g/	.	8b\	.	8G\	.	4G/	.	4b\	.
8GG/J	.	8b/J	.	8gg\J	.	8GG/J	.	.	.	.	.
!	!	!	!	!	!	!LO:LB:g=original	!	!	!	!	!
=87	=87	=87	=87	=87	=87	=87	=87	=87	=87	=87	=87
4D\	.	8f#/L	.	8a\L	.	4D\	-son	4F#/	-son	4a\	-son
.	.	(<16f#/L	.	(>16dd\L	.	.	.	.	.	.	.
.	.	16e/JJ)	.	16cc#X\JJ)	.	.	.	.	.	.	.
4r	.	4f#/	.	4dd\	.	4r	.	4r	.	4r	.
!	!	!	!	!	!	!	!	!	!	!LO:LB:g=original	!
=88	=88	=88	=88	=88	=88	=88	=88	=88	=88	=88	=88
4d\	.	8dd\L	.	8ff#\L	.	4d\	Ki-	4A\	Ki-	4ff#\	Ki-
.	.	8ff#\	.	8ddd\	.	.	.	.	.	.	.
4A\	.	8cc#X\	.	8ee\	.	4A\	-ri-	4c#X\	-ri-	4ee\	-ri-
.	.	8ee\J	.	8ccc#X\J	.	.	.	.	.	.	.
=89	=89	=89	=89	=89	=89	=89	=89	=89	=89	=89	=89
4D\	.	8ff#\L	.	8ddd\L	.	4D\	-e	4d\	-e	4ff#\	-e
.	.	(>16ff#\L	.	16aa\L	.	.	.	.	.	.	.
.	.	16dd\JJ)	.	16ff#\JJ	.	.	.	.	.	.	.
4r	.	8ee\L	.	8gg\L	.	4r	.	4r	.	4r	.
.	.	(>16ee\L	.	16gg\L	.	.	.	.	.	.	.
.	.	16cc#X\JJ)	.	16ee\JJ	.	.	.	.	.	.	.
=90	=90	=90	=90	=90	=90	=90	=90	=90	=90	=90	=90
4D\	.	8dd\L	.	8ff#\L	.	4D\	e-	4A\	e-	4ff#\	e-
.	.	8ff#\	.	8ddd\	.	.	.	.	.	.	.
4A\	.	8cc#X\	.	8ee\	.	4A\	-lei-	4c#X\	-lei-	4ee\	-lei-
.	.	8ee\J	.	8ccc#X\J	.	.	.	.	.	.	.
!	!	!LO:LB:g=origina	!	!LO:LB:g=original	!	!	!	!LO:LB:g=original	!	!	!
=91	=91	=91	=91	=91	=91	=91	=91	=91	=91	=91	=91
4D\	.	4ff#\	.	8ddd\L	.	4D\	-son	4d\	-son	8ff#\	-son
.	.	.	.	8aa\J	.	.	.	.	.	8a\	e-
8r	.	8r	.	4bb\	.	8r	.	8r	.	[>4b\	-lei-
8G\	.	8ee\	.	.	.	8G\	e-	8e\	e-	.	.
=92	=92	=92	=92	=92	=92	=92	=92	=92	=92	=92	=92
4C#X/	.	4gg\	.	8bb\L	.	4C#X/	-lei-	4g\	-lei-	8b\L]	.
.	.	.	.	8gg\J	.	.	.	.	.	8g\J	.
8r	.	8r	.	[>4aa\	.	8r	.	8r	.	[>4a\	.
8F#\	.	8dd\	.	.	.	8F#\	.	8d\	.	.	.
=93	=93	=93	=93	=93	=93	=93	=93	=93	=93	=93	=93
4BB/	.	4ff#\	.	8aa\L]	.	4BB/	.	4f#\	.	8a\L]	.
.	.	.	.	8ff#\J	.	.	.	.	.	8f#\J	.
8r	.	8r	.	4gg\	.	8r	.	8r	.	[>4g\	.
8E\	.	8cc#X\	.	.	.	8E\	.	8c#X\	.	.	.
=94	=94	=94	=94	=94	=94	=94	=94	=94	=94	=94	=94
!LO:TX:a:t=P:problem:mixed beam	!	!	!	!	!	!LO:TX:a:t=P:problem:mixed beam	!	!	!	!	!
8C#X/L	.	8ee\L	.	8gg\L	.	8C#X\L	.	8e\L	.	8g\L]	.
8D/	.	8dd\	.	8ff#\	.	8D\	.	8d\	.	8f#\J	.
8A\	.	8cc#X\	.	8ee\	.	8A\	.	8c#X\	.	8e\L	.
8AA/J	.	8ee\J	.	8ccc#X\J	.	8AA/J	.	8e\J	.	8cc#X\J	.
=95	=95	=95	=95	=95	=95	=95	=95	=95	=95	=95	=95
!LO:TX:a:t=P:problem:mixed beam	!	!LO:TX:a:t=P:problem:mixed beam	!	!	!	!	!	!	!	!	!
8D\L	.	8ff#\L	.	8ddd\L	.	4D\	-son	4f#\	-son	4dd\	-son
8D\	.	(<16f#/L	.	16dd\L	.	.	.	.	.	.	.
.	.	16b\JJ)	.	16gg\JJ	.	.	.	.	.	.	.
8A\	.	8a/L	.	8ff#\L	.	4r	.	4r	.	4r	.
8AA/J	.	(<16e/L	.	16cc#X\L	.	.	.	.	.	.	.
.	.	16g/JJ)	.	16ee\JJ	.	.	.	.	.	.	.
=96	=96	=96	=96	=96	=96	=96	=96	=96	=96	=96	=96
4D\	.	8f#/L	.	8dd\L	.	1r	.	1r	.	1r	.
.	.	(<16f#/L	.	(>16dd\L	.	.	.	.	.	.	.
.	.	16b/JJ)	.	16gg\JJ)	.	.	.	.	.	.	.
!LO:TX:a:t=P:problem:mixed beam	!	!	!	!	!	!	!	!	!	!	!
8A\L	.	8a/L	.	8ff#\L	.	.	.	.	.	.	.
8AA/J	.	(<16e/L	.	16cc#X\L	.	.	.	.	.	.	.
.	.	16g/JJ)	.	16ee\JJ	.	.	.	.	.	.	.
=97	=97	=97	=97	=97	=97	=97	=97	=97	=97	=97	=97
!LO:TX:a:t=P:problem:mixed beam	!	!LO:TX:a:t=P:problem:mixed beam	!	!	!	!	!	!	!	!	!
8D\L	.	8f#/L	.	8dd\L	.	.	.	.	.	.	.
8F#\	.	8ff#\	.	8ddd\	.	.	.	.	.	.	.
8A\	.	8cc#X\	.	8ee\	.	.	.	.	.	.	.
8AA/J	.	8ee\J	.	8ccc#X\J	.	.	.	.	.	.	.
=98	=98	=98	=98	=98	=98	=98	=98	=98	=98	=98	=98
4D\	.	4ff#\	.	4ddd\	.	2r	.	2r	.	2r	.
4r	.	4r	.	4r	.	.	.	.	.	.	.
!LO:LB:g=original	!	!	!	!	!	!	!	!	!	!	!
=99	=99	=99	=99	=99	=99	=99	=99	=99	=99	=99	=99
8D\L	.	4f#/	.	4dd\	.	4.D\	Ky-	4f#\	Ki-	4d/	Ki-
8d\	.	.	.	.	.	.	.	.	.	.	.
8D\	.	(>16dd\LL	.	16ff#\LL	.	.	.	(>16d\LL	.	(<16f#/LL	.
.	.	16cc#X\)	.	16ee\	.	.	.	16c#X\JJ)	.	16e/JJ)	.
8d\J	.	(>16dd\	.	16ff#\	.	8D\	-ri-	16d\LL	-ri-	(<16f#/LL	-ri-
.	.	16ee\JJ)	.	16gg\JJ	.	.	.	16e\JJ	.	16g/JJ)	.
=100	=100	=100	=100	=100	=100	=100	=100	=100	=100	=100	=100
.	.	8qqee/	.	8qqgg/	.	.	.	.	.	.	.
8D\L	.	4ff#\	.	4aa\	.	4D\	-e	4f#\	-e	4a\	-e
8d\	.	.	.	.	.	.	.	.	.	.	.
8D\	.	4ff#\	.	4aa\	.	4D\	e-	4f#\	e-	4a\	e-
8d\J	.	.	.	.	.	.	.	.	.	.	.
!	!	!	!	!	!	!LO:LB:g=original	!	!	!	!LO:LB:g=original	!
=101	=101	=101	=101	=101	=101	=101	=101	=101	=101	=101	=101
!LO:TX:a:t=P:problem:mixed beam	!	!	!	!	!	!	!	!	!	!	!
8D\L	.	4ff#\	.	4ddd\	.	4D\	-lei-	4f#\	-lei-	4dd\	-lei-
8d\	.	.	.	.	.	.	.	.	.	.	.
!	!	!	!	!	!	!LO:TX:a:t=P:problem:mixed beam	!	!	!	!	!
8A\	.	16ee\LL	.	16ccc#X\LL	.	8A\L	.	16e\LL	.	16cc#X\LL	.
.	.	(>16gg\	.	16bb\	.	.	.	16g\	.	16b\	.
8AA/J	.	16ff#\	.	16aa\	.	8AA/J	.	16f#\	.	16a\	.
.	.	16ee\JJ)	.	16gg\JJ	.	.	.	16e\JJ	.	16g\JJ	.
=102	=102	=102	=102	=102	=102	=102	=102	=102	=102	=102	=102
16D\LL	.	16dd\LL	.	16ff#/LL	.	4D\	.	4d\	.	4f#/	.
16d\	.	16dd\	.	16dd/	.	.	.	.	.	.	.
16A\	.	(>16a\	.	16a/	.	.	.	.	.	.	.
16F#\JJ	.	16f#\JJ)	.	16f#/JJ	.	.	.	.	.	.	.
4D\	.	4d/	.	4d/	.	4D\	-son	4d\	-son	4f#/	-son
!	!	!LO:LB:g=original	!	!	!	!	!	!	!	!	!
=103	=103	=103	=103	=103	=103	=103	=103	=103	=103	=103	=103
!	!	!	!	!	!	!LO:N:vis=4	!	!	!	!	!
8E\L	.	8e/L	.	8e/L	.	8E\	Ky-	0r	.	0r	.
(>16F#\L	.	16f#/L	.	16f#/L	.	16F#\LL	.	.	.	.	.
16G\JJ)	.	16g/JJ	.	16g/JJ	.	16G\JJ	.	.	.	.	.
(>16A\LL	.	(<16a/LL	.	16a/LL	.	(>16A\LL	-ri-	.	.	.	.
16G\)	.	16g/)	.	16g/	.	16G\JJ)	.	.	.	.	.
(>16F#\	.	(<16f#/	.	16f#/	.	(>16F#\LL	-e-	.	.	.	.
16E\JJ)	.	16e/JJ)	.	16e/JJ	.	16D\JJ)	.	.	.	.	.
!	!	!	!	!LO:LB:g=original	!	!	!	!	!	!	!
=104	=104	=104	=104	=104	=104	=104	=104	=104	=104	=104	=104
!	!	!	!	!	!	!LO:N:vis=4.	!	!	!	!	!
4A#X\	.	4a#X/	.	4a#X/	.	4A#X\	-lei-	.	.	.	.
8B\L	.	8b\L	.	8b/L	.	8B\	-son	.	.	.	.
8cn\J	.	8ccn\J	.	8ccn/J	.	8cn\	e-	.	.	.	.
=105	=105	=105	=105	=105	=105	=105	=105	=105	=105	=105	=105
8An\L	.	8an/L	.	8an/L	.	8An\L	-lei-	.	.	.	.
8F#\	.	8f#/	.	8f#/	.	8F#\	.	.	.	.	.
8D#X\	.	8d#X/	.	8d#X/	.	8D#X\	.	.	.	.	.
8BB\J	.	8B/J	.	8B/J	.	8BB\J	.	.	.	.	.
=106	=106	=106	=106	=106	=106	=106	=106	=106	=106	=106	=106
16E\LL	.	16e/LL	.	16e/LL	.	4E\	-son	.	.	.	.
16F#\	.	16f#/	.	16f#/	.	.	.	.	.	.	.
16G\	.	(<16g/	.	16g/	.	.	.	.	.	.	.
16F#\JJ	.	16f#/JJ)	.	16f#/JJ	.	.	.	.	.	.	.
8E\L	.	8e/L	.	8e/L	.	4r	.	.	.	.	.
8BB\J	.	8B/J	.	8B/J	.	.	.	.	.	.	.
=107	=107	=107	=107	=107	=107	=107	=107	=107	=107	=107	=107
8E\L	.	8e/L	.	8e/L	.	8E\	Ky-	0r	.	0r	.
(>16F#\L	.	(<16f#/L	.	16f#/L	.	(>16F#\LL	-ri-	.	.	.	.
16G\JJ)	.	16g/JJ)	.	16g/JJ	.	16G\JJ)	.	.	.	.	.
(>16A\LL	.	(<16a/LL	.	16a/LL	.	(>16A\LL	-e	.	.	.	.
16G\)	.	16g/)	.	16g/	.	16G\JJ)	.	.	.	.	.
(>16F#\	.	(<16f#/	.	16f#/	.	16F#\LL	e-	.	.	.	.
16E\JJ)	.	16e/JJ)	.	16e/JJ	.	16E\JJ	.	.	.	.	.
=108	=108	=108	=108	=108	=108	=108	=108	=108	=108	=108	=108
4A#X\	.	4a#X/	.	4a#X/	.	4A#X\	-lei-	.	.	.	.
8B\L	.	8b/L	.	8b/L	.	8B\	-son	.	.	.	.
8c\J	.	8cc/J	.	8cc/J	.	8c\	e-	.	.	.	.
=109	=109	=109	=109	=109	=109	=109	=109	=109	=109	=109	=109
8An\L	.	8an/L	.	8an/L	.	8An\L	-lei-	.	.	.	.
8F#\	.	8f#/	.	8f#/	.	8F#\	.	.	.	.	.
8D#X\	.	8d#X/	.	8d#X/	.	8D#X\	.	.	.	.	.
8BB\J	.	8B/J	.	8B/J	.	8BB\J	.	.	.	.	.
!	!	!	!	!	!	!LO:LB:g=original	!	!	!	!	!
=110	=110	=110	=110	=110	=110	=110	=110	=110	=110	=110	=110
8E\L	.	4e/	.	4e/	.	4E\	-son	.	.	.	.
8E\J	.	.	.	.	.	.	.	.	.	.	.
16Dn\LL	.	4r	.	4r	.	4r	.	.	.	.	.
16C\	.	.	.	.	.	.	.	.	.	.	.
16BB\	.	.	.	.	.	.	.	.	.	.	.
16AA\JJ	.	.	.	.	.	.	.	.	.	.	.
=111	=111	=111	=111	=111	=111	=111	=111	=111	=111	=111	=111
!LO:TX:a:t=P:problem:mixed beam	!	!	!	!	!	!	!	!	!	!	!
16GG/LL	.	8g/L	.	8g/L	.	8G\	Ki-	8G\	Ki-	8g\	Ki-
16G\	.	.	.	.	.	.	.	.	.	.	.
16A\	.	(<16a/L	.	16a/L	.	(>16A\LL	-ri-	(>16A\LL	-ri-	(>16a\LL	-ri-
16B\JJ	.	16b/JJ)	.	16b/JJ	.	16B\JJ)	.	16B\JJ)	.	16b\JJ)	.
16c\LL	.	(>16cc\LL	.	(>16cc\LL	.	(>16c\LL	.	(>16c\LL	-e	(>16cc\LL	-e
16A\	.	16b\)	.	16b\)	.	16B\JJ)	-e	16B\JJ)	.	16b\JJ)	.
16G\	.	(>16a\	.	(>16a\	.	16A\LL	e-	(>16A\LL	e-	(>16a\LL	e-
16F#\JJ	.	16g\JJ)	.	16g\JJ)	.	16G\JJ	.	16G\JJ)	.	16g\JJ)	.
!	!	!LO:LB:g=original	!	!	!	!	!	!LO:LB:g=original	!	!	!
=112	=112	=112	=112	=112	=112	=112	=112	=112	=112	=112	=112
4c#X\	.	4cc#X\	.	4cc#X\	.	4c#X\	-lei-	4c#X\	-lei-	4cc#X\	-lei-
8d\L	.	(>8dd\L	.	8dd\L	.	8d\	-son	8d\	-son	8dd\	-son
8e\J	.	8ee\J)	.	8ee\J	.	8e\	e-	8e\	e-	8ee\	e-
=113	=113	=113	=113	=113	=113	=113	=113	=113	=113	=113	=113
8cn\L	.	8ccn\L	.	8ccn\L	.	8cn\L	-lei-	8cn\L	-lei-	8ccn\L	-lei-
8A\	.	8a\J	.	8a\J	.	8A\	.	8A\	.	8a\	.
8F#\	.	8f#/L	.	8f#/L	.	8F#\	.	8F#\	.	8f#\	.
8D\J	.	8d/J	.	8d/J	.	8D\J	.	8D\J	.	8d\J	.
=114	=114	=114	=114	=114	=114	=114	=114	=114	=114	=114	=114
16G\LL	.	16g/LL	.	16g/LL	.	4G\	-son	4G/	-son	4g\	-son
16A\	.	(<16a/	.	16a/	.	.	.	.	.	.	.
16B\	.	16b/)	.	16b/	.	.	.	.	.	.	.
16A\JJ	.	16a/JJ	.	16a/JJ	.	.	.	.	.	.	.
4G\	.	8g/L	.	8g/L	.	4r	.	4r	.	4r	.
.	.	8d/J	.	8d/J	.	.	.	.	.	.	.
=115	=115	=115	=115	=115	=115	=115	=115	=115	=115	=115	=115
8G\L	.	8g/L	.	8g/L	.	8G\	Ky-	8G\	Ky-	8g\	Ky-
16A\L	.	16a/L	.	16a/L	.	16A\LL	-ri-	(>16A\LL	-ri-	(>16a\LL	-ri-
16B\JJ	.	16b/JJ	.	16b/JJ	.	16B\JJ	.	16B\JJ)	.	16b\JJ)	.
16c\LL	.	(<16cc/LL	.	(>16cc\LL	.	16c\LL	-e	(>16c\LL	-e	(>16cc\LL	-e
16B\	.	16b/)	.	16b\)	.	16B\JJ	.	16B\JJ)	.	16b\JJ)	.
16A\	.	(<16a/	.	(>16a\	.	16A\LL	e-	(<16A/LL	.	(>16a\LL	e-
16G\JJ	.	16g/JJ)	.	16g\JJ)	.	16G\JJ	.	16G/JJ)	e-	16g\JJ)	.
!	!	!	!	!LO:LB:g=original	!	!	!	!	!	!	!
=116	=116	=116	=116	=116	=116	=116	=116	=116	=116	=116	=116
4c#X\	.	4cc#X\	.	4cc#X\	.	4c#X\	-lei-	4c#X\	-lei-	4cc#X\	-lei-
8d\L	.	8dd\L	.	8dd\L	.	8d\	-son	8d\	-son	8dd\	-son
8e\J	.	8ee\J	.	8ee\J	.	8e\	e-	8e\	e-	8ee\	e-
!	!	!	!	!	!	!	!	!	!	!LO:LB:g=original	!
=117	=117	=117	=117	=117	=117	=117	=117	=117	=117	=117	=117
8cn\L	.	8ccn\L	.	8ccn\L	.	8cn\L	-lei-	8cn\L	-lei-	8ccn\L	-lei-
8A\	.	8a\J	.	8a\J	.	8A\	.	8A\	.	8a\	.
8F#\	.	8f#/L	.	8f#/L	.	8F#\	.	8F#\	.	8f#\	.
8D\J	.	8d/J	.	8d/J	.	8D\J	.	8D\J	.	8d\J	.
!	!	!	!	!	!	!LO:LB:g=original	!	!	!	!	!
=118	=118	=118	=118	=118	=118	=118	=118	=118	=118	=118	=118
16G\LL	.	16g/LL	.	16g/LL	.	4G\	-son	4G#X/	-son	4g\	-son
16G\	.	16g/	.	16g/	.	.	.	.	.	.	.
16D\	.	16d/	.	16d/	.	.	.	.	.	.	.
16BB\JJ	.	16B/JJ	.	16B/JJ	.	.	.	.	.	.	.
4GG/	.	4G/	.	4G/	.	4r	.	4r	.	4r	.
=119	=119	=119	=119	=119	=119	=119	=119	=119	=119	=119	=119
4GG/	.	8r	.	8r	.	4G\	e-	8r	.	8r	.
.	.	16b\LL	.	16dd\LL	.	.	.	16B\LL	e-	(16dd\LL	e-
.	.	16cc\JJ	.	16ee\JJ	.	.	.	16c\JJ	.	16ee\JJ)	.
16r	.	4dd\	.	4ffn\	.	4G\	-lei-	4d\	-lei-	4ffn\	-lei-
16GG/LL	.	.	.	.	.	.	.	.	.	.	.
16BB/	.	.	.	.	.	.	.	.	.	.	.
16GG/JJ	.	.	.	.	.	.	.	.	.	.	.
=120	=120	=120	=120	=120	=120	=120	=120	=120	=120	=120	=120
4C/	.	8dd\L	.	8ee\L	.	8C/	-son	8c\	-son	8ee\	-son
.	.	(>16b\L	.	16dd\L	.	8G\	e-	(>16B\LL	e-	(>16dd\LL	e-
.	.	16cc\JJ)	.	16ee\JJ	.	.	.	16c\JJ)	.	16ee\JJ)	.
16r	.	4dd\	.	4ff#\	.	4G\	-lei-	4d\	-lei-	4ffn\	-lei-
16GG/LL	.	.	.	.	.	.	.	.	.	.	.
16BB/	.	.	.	.	.	.	.	.	.	.	.
16GG/JJ	.	.	.	.	.	.	.	.	.	.	.
=121	=121	=121	=121	=121	=121	=121	=121	=121	=121	=121	=121
4C/	.	8cc\L	.	8ee\L	.	8C/	-son	8c\	-son	8ee\	-son
.	.	(>16cc#X\L	.	16ee\L	.	8A\	e-	(>16c#X\LL	e-	16ee\LL	e-
.	.	16dd\JJ)	.	16ff#X\JJ	.	.	.	16d\JJ)	.	16ff#X\JJ	.
16r	.	4ee\	.	4gg\	.	4A\	-lei-	4e\	-lei-	4gg\	-lei-
16AA/LL	.	.	.	.	.	.	.	.	.	.	.
16C#X/	.	.	.	.	.	.	.	.	.	.	.
16AA/JJ	.	.	.	.	.	.	.	.	.	.	.
!	!	!	!	!	!	!	!	!LO:LB:g=original	!	!	!
=122	=122	=122	=122	=122	=122	=122	=122	=122	=122	=122	=122
4D\	.	8dd\L	.	8ff#\L	.	8D\	-son	8d\	-son	8ff#\	-son
.	.	16cc#X\L	.	16ee\L	.	8A\	e-	(>16c#X\LL	e-	(>16ee\LL	e-
.	.	16dd\JJ	.	16ff#X\JJ	.	.	.	16d\JJ)	.	16ff#\JJ)	.
16r	.	4ee\	.	4gg\	.	4A\	-lei-	4e\	-lei-	4gg\	-lei-
16AA/LL	.	.	.	.	.	.	.	.	.	.	.
16C/	.	.	.	.	.	.	.	.	.	.	.
16AA/JJ	.	.	.	.	.	.	.	.	.	.	.
!	!	!LO:LB:g=original	!	!	!	!	!	!	!	!	!
=123	=123	=123	=123	=123	=123	=123	=123	=123	=123	=123	=123
!	!	!	!	!	!	!	!	!LO:TX:a:t=de	!	!	!
!	!	!	!	!	!	!	!	!LO:TX:a:t=vi na koncu	!	!	!
!	!	!LO:TX:a:t=P:problem:mixed beam	!	!	!	!	!	!LO:TX:t=P:problem:takty 123-132 dopisane na na końcu mszy (po Agnus Dei)	!	!	!
4D\	.	8dd\L	.	8ff#\L	.	8D\	-son	8d\	-son	8ff#\	-son
.	.	16f#/L	.	16a\L	.	8D\	e-	16F#/LL	e-	(>16a\LL	e-
.	.	16g/JJ	.	16b\JJ	.	.	.	16G/JJ	.	16b\JJ)	.
16r	.	4a/	.	4cc\	.	4D\	-lei-	4A/	-lei-	4ccn\	-lei-
16D\LL	.	.	.	.	.	.	.	.	.	.	.
16F#\	.	.	.	.	.	.	.	.	.	.	.
16D\JJ	.	.	.	.	.	.	.	.	.	.	.
=124	=124	=124	=124	=124	=124	=124	=124	=124	=124	=124	=124
4G\	.	8g/L	.	8b\L	.	8G\	-son	8G/	-son	8b\	-son
.	.	16f#/L	.	16a\L	.	8D\	e-	16F#/LL	e-	(>16a\LL	e-
.	.	16g/JJ	.	16b\JJ	.	.	.	16G/JJ	.	16b\JJ)	.
16r	.	4a/	.	4cc\	.	4D\	-lei-	4A\	-lei-	4cc\	-lei-
16D\LL	.	.	.	.	.	.	.	.	.	.	.
16F#\	.	.	.	.	.	.	.	.	.	.	.
16D\JJ	.	.	.	.	.	.	.	.	.	.	.
=125	=125	=125	=125	=125	=125	=125	=125	=125	=125	=125	=125
8G\L	.	16g/LL	.	16b\LL	.	4G\	-son	4G/	-son	4b\	-son
.	.	16b/	.	16dd\	.	.	.	.	.	.	.
8G\	.	16dd/	.	16gg\	.	.	.	.	.	.	.
.	.	16gg/JJ	.	16bb\JJ	.	.	.	.	.	.	.
8F#\	.	8a/L	.	8cc\L	.	8F#\L	e-	8A/L	e-	(>8cc\L	e-
8G\J	.	8g/J	.	8b\J	.	8G\J	.	8G/J	.	8b\J)	.
!	!	!	!	!	!	!	!	!	!	!LO:LB:g=original	!
=126	=126	=126	=126	=126	=126	=126	=126	=126	=126	=126	=126
!LO:TX:a:t=P:problem:mixed beam	!	!	!	!	!	!	!	!	!	!	!
8d\L	.	8g/L	.	8b\L	.	8d\	-lei-	8G/	-lei-	8b\	-lei-
8D/J	.	8f#/J	.	8a\J	.	8D\	-son	8F#/	-son	8a\	-son
4D/	.	4ff# 4a 4d/	.	4ff# 4a 4d/	.	4r	.	4r	.	4r	.
!	!	!	!	!	!	!LO:LB:g=original	!	!	!	!	!
=127	=127	=127	=127	=127	=127	=127	=127	=127	=127	=127	=127
8G\L	.	8g/L	.	8g/L	.	8G\	Ki-	8G/	Ki-	8g\	Ky-
(>16A\L	.	16a/L	.	16a/L	.	(>16A\LL	-ri-	(>16A\LL	-ri-	(>16a\LL	-ri-
16B\JJ)	.	16b/JJ	.	16b/JJ	.	16B\JJ)	.	16B\JJ)	.	16b\JJ)	.
(>16c\LL	.	16cc\LL	.	16cc\LL	.	16c\LL	-e	(>16c\LL	-e	(>16cc\LL	-e
16B\)	.	16b\	.	16b\	.	16B\JJ	.	16B\JJ)	.	16b\JJ)	.
(>16A\	.	16a\	.	16a\	.	(>16A\LL	e-	(>16A\LL	e-	(>16a\LL	e-
16G\JJ)	.	16g\JJ	.	16g\JJ	.	16G\JJ)	.	16G\JJ)	.	16g\JJ)	.
!	!	!	!	!LO:LB:g=original	!	!	!	!	!	!	!
=128	=128	=128	=128	=128	=128	=128	=128	=128	=128	=128	=128
4c#X\	.	4cc#X\	.	4cc#X\	.	4c#X\	-lei-	4c#X\	-lei-	4cc\	-lei-
8d\L	.	8dd\L	.	8dd\L	.	8d\	-son	8d\	-son	8dd\	-son
8e\J	.	8ee\J	.	8ee\J	.	8e\	e-	8e\	e-	8ee\	e-
=129	=129	=129	=129	=129	=129	=129	=129	=129	=129	=129	=129
8cn\L	.	8ccn/L	.	8ccn\L	.	8cn\L	-lei-	8dn\L	-lei-	8ccn\L	-lei-
8A\	.	8a/	.	8a\J	.	8A\	.	8B\	.	8a\	.
8F#\	.	8f#/	.	8f#/L	.	8F#\	.	8G\	.	8f#\	.
8D\J	.	8d/J	.	8d/J	.	8D\J	.	8E\J	.	8d\J	.
!LO:LB:g=original	!	!	!	!	!	!	!	!	!	!	!
=130	=130	=130	=130	=130	=130	=130	=130	=130	=130	=130	=130
16G\LL	.	16g/LL	.	16g/LL	.	4G\	-son	4A\	-son	4g\	-son
16A\	.	16a/	.	16a/	.	.	.	.	.	.	.
16B\	.	16b/	.	16b/	.	.	.	.	.	.	.
16A\JJ	.	16a/JJ	.	16a/JJ	.	.	.	.	.	.	.
!LO:TX:a:t=P:problem:mixed beam	!	!	!	!	!	!	!	!	!	!	!
8G\L	.	8g/L	.	8g/L	.	4r	.	4r	.	4r	.
8GG/J	.	8d/J	.	8d/J	.	.	.	.	.	.	.
!	!	!	!	!	!	!	!	!LO:LB:g=original	!	!	!
=131	=131	=131	=131	=131	=131	=131	=131	=131	=131	=131	=131
8G\L	.	8g/L	.	8g/L	.	8G\	Ki-	8G/	Ki-	8g\	Ki-
(>16A\L	.	(<16a/L	.	16a/L	.	(>16A\LL	-ri-	(>16A\LL	-ri-	(>16a\LL	-ri-
16B\JJ)	.	16b/JJ)	.	16b/JJ	.	16B\JJ)	.	16B\JJ)	.	16b\JJ)	.
16c\LL	.	16cc\LL	.	16cc\LL	.	16c\LL	-e	(>16c\LL	-e	(>16cc\LL	-e
16B\	.	16b\	.	16b\	.	16B\JJ	.	16B\JJ)	.	16b\JJ)	.
16A\	.	(>16a\	.	16a\	.	(>16A\LL	e-	(>16A\LL	e-	(>16a\LL	e-
16G\JJ	.	16g\JJ)	.	16g\JJ	.	16G\JJ)	.	16G\JJ)	.	16g\JJ)	.
=132	=132	=132	=132	=132	=132	=132	=132	=132	=132	=132	=132
4c#X\	.	4cc#X\	.	4cc#X\	.	4c#X\	-lei-	4c#X\	-lei-	4cc#X\	-lei-
8d\L	.	8dd\L	.	8dd\L	.	8d\	-son	8d\	-son	8dd\	-son
8e\J	.	8ee\J	.	8ee\J	.	8e\	e-	8e\	e-	8ee\	e-
!	!	!LO:LB:g=original	!	!	!	!	!	!	!	!	!
=133	=133	=133	=133	=133	=133	=133	=133	=133	=133	=133	=133
8cn\L	.	8ccn/L	.	8ccn\L	.	8cn\L	-lei-	8cn\L	-lei-	8ccn\L	-lei-
8A\	.	8a/	.	8a\J	.	8A\	.	8A\	.	8a\	.
8F#\	.	8f#/	.	8f#/L	.	8F#\	.	8F#\	.	8f#\	.
8D\J	.	8d/J	.	8d/J	.	8D\J	.	8D\J	.	8d\J	.
!	!	!	!	!	!	!LO:LB:g=original	!	!	!	!	!
=134	=134	=134	=134	=134	=134	=134	=134	=134	=134	=134	=134
16G\LL	.	16g/LL	.	16g/LL	.	4G\	-son	4G/	-son	4g\	-son
16G\	.	16g/	.	16g/	.	.	.	.	.	.	.
16D\	.	16d/	.	16d/	.	.	.	.	.	.	.
16BB\JJ	.	16B/JJ	.	16B/JJ	.	.	.	.	.	.	.
4GG/	.	4G/	.	4G/	.	4r	.	4r	.	4r	.
!	!	!	!	!	!	!	!	!	!	!LO:LB:g=original	!
=135	=135	=135	=135	=135	=135	=135	=135	=135	=135	=135	=135
!LO:TX:a:t=P:problem:mixed beam	!	!	!	!	!	!	!	!	!	!	!
8GG/L	.	4cc\	.	4ee\	.	2G\	e-	4c\	e-	4ee\	e-
8G\	.	.	.	.	.	.	.	.	.	.	.
8GG/	.	4b\	.	4dd\	.	.	.	4B\	.	4dd\	.
8G\J	.	.	.	.	.	.	.	.	.	.	.
=136	=136	=136	=136	=136	=136	=136	=136	=136	=136	=136	=136
!LO:TX:a:t=P:problem:mixed beam	!	!	!	!	!	!	!	!	!	!	!
.	.	.	.	.	.	.	.	.	.	8qqdd/	.
8GG/L	.	4a/	.	4cc\	.	4G\	-lei-	4A\	-lei-	4cc\	-lei-
8G\	.	.	.	.	.	.	.	.	.	.	.
8GG/	.	4g/	.	4b\	.	4G\	-son	4G\	-son	4b\	-son
8G\J	.	.	.	.	.	.	.	.	.	.	.
=137	=137	=137	=137	=137	=137	=137	=137	=137	=137	=137	=137
!LO:TX:a:t=P:problem:mixed beam	!	!	!	!	!	!	!	!	!	!	!
.	.	.	.	8qqee/	.	.	.	.	.	.	.
8GG/L	.	4cc\	.	4ee\	.	2G\	e-	4c\	son-	4ee\	e-
8G\	.	.	.	.	.	.	.	.	.	.	.
8GG/	.	4b\	.	4dd\	.	.	.	4B\	.	4dd\	.
8G\J	.	.	.	.	.	.	.	.	.	.	.
=138	=138	=138	=138	=138	=138	=138	=138	=138	=138	=138	=138
!LO:TX:a:t=P:problem:mixed beam	!	!	!	!	!	!	!	!	!	!	!
.	.	.	.	8qqdd/	.	.	.	.	.	.	.
8GG/L	.	4a/	.	4cc\	.	4G\	-lei-	4A\	-lei-	4cc\	-lei-
8G\	.	.	.	.	.	.	.	.	.	.	.
8GG/	.	4g/	.	4b\	.	4G\	-son	4G\	-son	4b\	-son
8G\J	.	.	.	.	.	.	.	.	.	.	.
=139	=139	=139	=139	=139	=139	=139	=139	=139	=139	=139	=139
8G\L	.	8g\L	.	8b\L	.	8G\L	e-	4G/	e-	4b\	e-
8B\	.	8dd\	.	16dd\L	.	8B\J	.	.	.	.	.
.	.	.	.	16gg\JJ	.	.	.	.	.	.	.
!	!	!	!	!	!	!LO:TX:a:t=P:problem:mixed beam	!	!	!	!	!
8d\	.	8f#\	.	8a\L	.	8d\L	.	4F#/	-lei-	4a\	-lei-
!	!	!LO:TX:a:t=a	!	!	!	!	!	!	!	!	!
8D\J	.	8cc\J	.	8ff#\J	.	8D/J	-lei-	.	.	.	.
=140	=140	=140	=140	=140	=140	=140	=140	=140	=140	=140	=140
4G\	.	4b\	.	4gg\	.	8G\	-son	8G/	-son	8b\	-son
.	.	.	.	.	.	8G\	e-	8G/	e-	8a\	e-
4d\	.	4ff# 4a 4d/	.	4ff# 4a 4d/	.	4d\	-lei-	4F#/	-lei-	4a\	-lei-
=141	=141	=141	=141	=141	=141	=141	=141	=141	=141	=141	=141
4G\	.	4gg 4b 4d 4G/	.	4gg 4b 4d 4G/	.	8G\	-son	8G/	-son	8b\	-son
.	.	.	.	.	.	8G\	e-	8G/	e-	8b\	e-
4D\	.	4ff# 4a 4d/	.	4ff# 4a 4d/	.	4D\	-lei-	4F#/	-lei-	4a\	-lei-
=142	=142	=142	=142	=142	=142	=142	=142	=142	=142	=142	=142
4GG/	.	4gg 4b 4d 4G/	.	4gg 4b 4d 4G/	.	4G\	-son	4G/	-son	4b\	-son
!	!	!	!	!	!	!	!	!LO:TX:t=P:problem:na końcu dopisany jeszcze raz takt do wstawienia w t. 31 z dopiskiem "de"	!	!	!
4r	.	4r	.	4r	.	4r	.	4r	.	4r	.
=||	=||	=||	=||	=||	=||	=||	=||	=||	=||	=||	=||
*-	*-	*-	*-	*-	*-	*-	*-	*-	*-	*-	*-
!!!system-decoration: [(s1,s2,s3)][(s4,s5)]s6
!!!RDF**kern: > = above
!!!RDF**kern: < = below
!!!RDF**dynam: f = for
!!!RDF**dynam: p = pia
!!!EED: Antoni Szymański
!!!EST: 2020-09-18
!!!ENC: Andrzej Borzym
!!!END: 2020-05-18
!!!RDF**kern: | = vertical stroke
